!!!COM: Beethoven, Ludwig van
!!!CDT: 1770///-1827///
!!!ODT: 1825///-1826///
!!!OTL: String Quartet No. 13 in B-flat Major, Op. 130
!!!OPS: Op. 130
!!!OMV: Mvmt. 3
!!!OMD: Andante con moto ma non troppo
!!!PDT: 1827///
!!!PPP: Vienna
!!!ODE: Dem F&uuml;rsten Nicolaus von Galitzin gewindmet
!!!MPD: 1826/03/21/
!!!MPD: 1827/04/22/
**kern	**dynam	**kern	**dynam	**kern	**dynam	**kern	**dynam
*staff4	*staff4	*staff3	*staff3	*staff2	*staff2	*staff1	*staff1
*Icello	*Icello	*Iviola	*Iviola	*Ivioln	*Ivioln	*Ivioln	*Ivioln
*clefF4	*clefF4	*clefC3	*clefC3	*clefG2	*clefG2	*clefG2	*clefG2
*k[b-e-a-d-g-]	*k[b-e-a-d-g-]	*k[b-e-a-d-g-]	*k[b-e-a-d-g-]	*k[b-e-a-d-g-]	*k[b-e-a-d-g-]	*k[b-e-a-d-g-]	*k[b-e-a-d-g-]
*D-:	*D-:	*D-:	*D-:	*D-:	*D-:	*D-:	*D-:
*met(C)	*met(C)	*met(C)	*met(C)	*met(C)	*met(C)	*met(C)	*met(C)
*M4/4	*M4/4	*M4/4	*M4/4	*M4/4	*M4/4	*M4/4	*M4/4
*MM64	*MM64	*MM64	*MM64	*MM64	*MM64	*MM64	*MM64
=1-	=1-	=1-	=1-	=1-	=1-	=1-	=1-
1r	.	4r	.	4r	.	(2b-\	.
.	.	[4c\	.	[4e-/	.	.	.
.	.	(4c\]	.	(4e-/]	.	8b--\)	.
.	.	.	.	.	.	8r	.
.	.	8.e-\L	.	8.g-/L	.	4r	.
.	.	32d-\LL	.	32f/LL	.	.	.
.	.	32c\JJJ)	.	32e-/JJJ)	.	.	.
=2	=2	=2	=2	=2	=2	=2	=2
4r	p	8d-\	p	4f/	p	(4b-\	p
.	.	8r	.	.	.	.	.
[4CC/	.	[4E-/	.	(4b-/	.	4bb-\	.
(4CC/]	.	(4E-/]	.	8an/)	.	8aan\)	.
.	.	.	.	8r	.	8r	.
8.EE-/L	.	8.G-/L	.	8r	.	8r	.
.	.	.	.	[8a-/	.	[8aa-\	.
32DD-/LL	.	32F/LL	.	.	.	.	.
32CC/JJJ)	.	32E-/JJJ)	.	.	.	.	.
=3	=3	=3	=3	=3	=3	=3	=3
16DD-'/LL	.	(4D-/	.	2a-/_	.	2aa-\_	.
16BB-'/	.	.	.	.	.	.	.
16AA-'/	.	.	.	.	.	.	.
16FF'/JJ	.	.	.	.	.	.	.
16DD-/LL	.	8.F/L	.	.	.	.	.
16BB-/	.	.	.	.	.	.	.
16AA-/	.	.	.	.	.	.	.
16FF/JJ	.	32E-/LL	.	.	.	.	.
.	.	32D-/JJJ	.	.	.	.	.
16CC/LL	.	8E-'/L)	.	2a-/_	.	8aa-\L]	.
16BB-/	.	.	.	.	.	.	.
16AA-/	.	8F'/	.	.	.	[8aa-\J	.
16DD-/JJ	.	.	.	.	.	.	.
16EE-/LL	.	8G-'/J	.	.	.	16aa-\LK]	.
16BB-/	.	.	.	.	.	8gg-\	.
16AA-/	.	8r	.	.	.	.	.
16EE-/JJ	.	.	.	.	.	16cc'\Jk	.
=4	=4	=4	=4	=4	=4	=4	=4
16DD-'/LL	.	(4F/	.	2a-/]	.	2dd-\	.
16BB-'/	.	.	.	.	.	.	.
16AA-'/	.	.	.	.	.	.	.
16FF'/JJ	.	.	.	.	.	.	.
16FF'/LL	.	8.A-/L	.	.	.	.	.
16E-'/	.	.	.	.	.	.	.
16D-'/	.	.	.	.	.	.	.
16AA-'/JJ	.	32G-/LL	.	.	.	.	.
.	.	32F/JJJ)	.	.	.	.	.
16GG-'/LL	.	8B-'\L	.	16a-'/LL	.	16cc'/LL	.
16G-'/	.	.	.	16g-'/JJ	.	16b-'/	.
16E-'/	.	8c'\	.	16r	.	16a-'/	.
16AA-'/JJ	.	.	.	16e-'/	.	16g-'/JJ	.
16AA-'/LL	.	8d-'\	.	16r	.	8f'/L	.
16A-'/	.	.	.	16d-'/LL	.	.	.
16A-'/	.	8e-'\J	.	16c'/	.	8cc'/J	.
16AA-'/JJ	.	.	.	16g-'/JJ	.	.	.
=5	=5	=5	=5	=5	=5	=5	=5
*	*	*	*	*^	*	*	*
8DD-'/	.	16d-'/LL	.	(8f/	(2A-\	.	(4dd-\	.
.	.	16B-'/	.	.	.	.	.	.
8r	.	16A-'/	.	[4.a-/)	.	.	.	.
.	.	16F'/JJ	.	.	.	.	.	.
16r	.	8D-'/	.	.	.	.	8.ff\L	.
16BB-'/LL	.	.	.	.	.	.	.	.
16AA-'/	.	8r	.	.	.	.	.	.
16DD-'/JJ	.	.	.	.	.	.	32ee-\LL	.
.	.	.	.	.	.	.	32dd-\JJJ)	.
*	*	*	*	*v	*v	*	*	*
8CC'/	.	16r	.	8A-/L) 8a-/]	.	8ee-'\L	.
.	.	16B-'/LL	.	.	.	.	.
8r	.	16A-'/	.	[8A-/J [8a-/	.	8ff'\	.
.	.	16C'/JJ	.	.	.	.	.
16r	.	8D-'/	.	16A-/LK] 16a-/]	.	8gg-'\J	.
16BB-'/LL	.	.	.	8g-/	.	.	.
16AA-'/	.	8r	.	.	.	8r	.
16EE-'/JJ	.	.	.	16c/Jk	.	.	.
=6	=6	=6	=6	=6	=6	=6	=6
*	*	*	*	*^	*	*	*
8DD-'/	.	16r	.	(8a-/	2A-\	.	(4ff\	.
.	.	16B-'/LL	.	.	.	.	.	.
8r	.	16A-'/	.	4f/)	.	.	.	.
.	.	16F'/JJ	.	.	.	.	.	.
16r	.	8D-'/	.	.	.	.	8.aa-\L	.
16E-'/LL	.	.	.	.	.	.	.	.
16D-'/	.	8r	.	8f/	.	.	.	.
16AA-'/JJ	.	.	.	.	.	.	32gg-\LL	.
.	.	.	.	.	.	.	32ff\JJJ)	.
*	*	*	*	*v	*v	*	*	*
8GG-'/	.	16r	.	8B-'/L	.	8bb-'\L	.
.	.	16f'\LL	.	.	.	.	.
8r	.	16e-'\	.	8g-'/J	.	8ccc'\	.
.	.	16A-'\JJ	.	.	.	.	.
16r	.	8B-'/L	.	8f'/L	.	8ddd-'\	.
16B-'\LL	.	.	.	.	.	.	.
16A-'\	.	8C'/J	.	16c'/L	.	8eee-'\J	.
16C'\JJ	.	.	.	16e-'/JJ	.	.	.
=7	=7	=7	=7	=7	=7	=7	=7
16BB-'\LL	p	(8D-/L	p	(8f/L	p	(8.fff\L	p
16A-'\	.	.	.	.	.	.	.
16Gn'\	.	[8B-/	.	[8gn/	.	.	.
16BB-'\JJ	.	.	.	.	.	32eee-\LL	.
.	.	.	.	.	.	32ddd-\JJJ)	.
16C'\LL	.	8B-/]	.	8g/]	.	8eee-'\L	.
16F'\	.	.	.	.	.	.	.
16E-'\	.	8c/J)	.	8a-/J)	.	8aa-'\J	.
16C'\JJ	.	.	.	.	.	.	.
16BB-\LL	.	(8D-/L	.	(8.ff\L	.	(8f/L	.
16A-\	.	.	.	.	.	.	.
16G\	.	[8B-/	.	.	.	[8gn/	.
16BB-\JJ	.	.	.	32ee-\LL	.	.	.
.	.	.	.	32dd-\JJJ)	.	.	.
16C\LL	.	8B-/]	.	8ee-'\L	.	8g/]	.
16F\	.	.	.	.	.	.	.
16E-\	.	8c/J)	.	[8a-\J	.	8a-/J)	.
16C\JJ	.	.	.	.	.	.	.
=8	=8	=8	=8	=8	=8	=8	=8
16BB-\LL	p	(8F/L	p	(8a-/L]	p	(8.fff\L	p
16A-\	.	.	.	.	.	.	.
16Gn\	.	[8Gn/	.	8b-/	.	.	.
16BB-\JJ	.	.	.	.	.	32eee-\LL	.
.	.	.	.	.	.	32ddd-\JJJ)	.
16C\LL	.	8G'/])	.	8e-'/)	.	8eee-'\L	.
16F\	.	.	.	.	.	.	.
16E-\	.	8A-'/J	.	8c'/J	.	8aaa-'\J	.
16C\JJ	.	.	.	.	.	.	.
16D-/LL	.	8A-'/L	.	8B-'/L	.	8bb-'\L	.
16F/	.	.	.	.	.	.	.
16E-/	.	8G'/	.	8B-'/	.	8eee-'\J	.
16EE-/JJ	.	.	.	.	.	.	.
16AA-/LL	.	8E-'/	.	8c-'/	.	8aa-'\L	.
16A-/	.	.	.	.	.	.	.
16Dn/	.	8F'/J	.	8B-'/J	.	8bb-'\J	.
16DDn/JJ	.	.	.	.	.	.	.
=9	=9	=9	=9	=9	=9	=9	=9
16EE-/LL	p	8G-'/L	p	8B-'/L	p	8gg-'\L	p
16G-/	.	.	.	.	.	.	.
16C/	.	8E-'/	.	8A-'/	.	8aa-'\	.
16CC/JJ	.	.	.	.	.	.	.
16DD-/LL	.	8F'/	.	8A-'/	.	8ff'\	.
16A-\	.	.	.	.	.	.	.
16F\	.	8F'/J 8A-'/	.	8a-'/J	.	8ddd-'\J	.
16FF\JJ	.	.	.	.	.	.	.
16GG-\LL	.	8B-'/L	.	8g-'/L	.	8ee-'\L	.
16B-\	.	.	.	.	.	.	.
16BB-\	.	8c'/	.	8e-'/	.	8aa-'\	.
16AA-\JJ	.	.	.	.	.	.	.
8D-\	.	8A-'/J	.	8f'/J	.	8dd-'\J	.
8r	.	8r	.	8r	.	8r	.
=10	=10	=10	=10	=10	=10	=10	=10
8EE-/L	.	4r	.	2r	.	2r	.
8AA-/J	.	.	.	.	.	.	.
8DD-/	.	8F/L	.	.	.	.	.
8r	.	8d-/J	.	.	.	.	.
8EE-/	.	8Gn\L	.	8b-\L	.	4r	.
8r	.	8gn\J	.	8ee-\J	.	.	.
8AA-/	.	8A-\ 8a-\	.	8cc\	.	8ee-'\L	.
8r	.	8r	.	8r	.	8ccc'\J	.
=11	=11	=11	=11	=11	=11	=11	=11
*k[b-e-a-d-]	*k[b-e-a-d-]	*k[b-e-a-d-]	*k[b-e-a-d-]	*k[b-e-a-d-]	*k[b-e-a-d-]	*k[b-e-a-d-]	*k[b-e-a-d-]
.	.	.	.	fq/	.	.	.
2r	.	4r	.	16e-'/LL	.	4ccc\	.
.	.	.	.	16dn'/	.	.	.
.	.	.	.	16e-'/	.	.	.
.	.	.	.	16a-'/JJ	.	.	.
.	.	.	.	.	.	dd-q/	.
.	.	16E-'/LL	.	16a-'/LL	.	16cc'\LL	.
.	.	16d-'/	.	16gn'/	.	16b-'\	.
.	.	16c'/	.	16a-'/	.	16cc'\	.
.	.	16A-'/JJ	.	16cc'/JJ	.	16ee-'\JJ	.
FFq/	.	.	.	.	.	.	.
16EE-'/LL	.	8B-'/L	.	8g'/L	.	8dd-'\L	.
16DDn'/	.	.	.	.	.	.	.
16EE-'/	.	8B-'/J	.	8e-'/J	.	8dd-'\J	.
16GGn'/JJ	.	.	.	.	.	.	.
.	.	B-q/	.	.	.	.	.
8AA-'/	.	16A-'/LL	.	8e-'/	.	8cc'\	.
.	.	16G'/	.	.	.	.	.
8r	.	16A-'/	.	8r	.	8r	.
.	.	16c'/JJ	.	.	.	.	.
=12	=12	=12	=12	=12	=12	=12	=12
.	.	.	.	dd-q/	.	.	.
2r	.	4r	.	16cc'\LL	.	4aa-\	.
.	.	.	.	16b-'\	.	.	.
.	.	.	.	16cc'\	.	.	.
.	.	.	.	16ee-'\JJ	.	.	.
.	.	Gq/	.	d-q/	.	bb-q/	.
.	.	16A-'/LL	.	16c'/LL	.	16aa-'\LL	.
.	.	16B-'/	.	16d-'/	.	16ggn'\	.
.	.	16A-'/	.	16c'/	.	16aa-'\	.
.	.	16C'/JJ	.	16a-'/JJ	.	16ccc'\JJ	.
*clefC4	*clefC4	*	*	*	*	*	*
fq/	.	.	.	.	.	.	.
16e-'\LL	.	8D-'/L	.	8g'/L	.	8bb-'\L	.
16dn'\	.	.	.	.	.	.	.
16e-'\	.	8D-'/J	.	8g'/J	.	8bb-'\J	.
16g'\JJ	.	.	.	.	.	.	.
8a-'\	.	16C'/LL	.	16e-'/LL	.	8aa-'\	.
.	.	16B-'/	.	16g'/	.	.	.
8r	.	16c'/	.	16a-'/	.	8r	.
.	.	16e-'/JJ	.	16cc'/JJ	.	.	.
=13	=13	=13	=13	=13	=13	=13	=13
*clefF4	*clefF4	*	*	*	*	*	*
GG-q/	.	.	.	.	.	.	.
16FF'/LL	pp	8e-'\L	pp	8cc'/L	pp	8ccc'\L	pp
16EEn'/	.	.	.	.	.	.	.
16FF'/	.	8e-'\J	.	8f'/J	.	8ccc'\J	.
16AAn'/JJ	.	.	.	.	.	.	.
.	.	e-q/	.	g-q/	.	.	.
8BB-'/	.	16d-'\LL	.	16f'/LL	.	8bb-'\	.
.	.	16d-'\	.	16en'/	.	.	.
8r	.	16d-'\	.	16f'/	.	8r	.
.	.	16d-'\JJ	.	16b-'/JJ	.	.	.
8AA-'/L	.	8C'/L	.	8ee-'\L	.	8eee-'\L	.
8A-'\J	.	8c'/J	.	8e-'/J	.	8gg-'\J	.
16r	.	4r	.	4r	.	4r	.
(32CC/LLL	.	.	.	.	.	.	.
32DD-/J)	.	.	.	.	.	.	.
16EE-'/	.	.	.	.	.	.	.
16CC'/JJ	.	.	.	.	.	.	.
=14	=14	=14	=14	=14	=14	=14	=14
(8.FF/L	.	2r	.	1r	.	2r	.
16BB-/Jk)	.	.	.	.	.	.	.
(8.EE-/L	.	.	.	.	.	.	.
16AA-/Jk)	.	.	.	.	.	.	.
8r	.	8D-'/L	.	.	.	4r	.
8GGn'/L	.	8E-'/	.	.	.	.	.
8AA-'/	.	8C'/J	.	.	.	16r	.
.	.	.	.	.	.	(32cc\LLL	.
.	.	.	.	.	.	32dd-\JJJ)	.
8CC'/J	.	8r	.	.	.	16ee-'\LL	.
.	.	.	.	.	.	16cc'\JJ	.
=15	=15	=15	=15	=15	=15	=15	=15
8.r	.	8r	.	8r	.	(8.ff\L	.
.	.	(32e-\LLL	.	(4b-/	.	.	.
.	.	32d-\JJJ)	.	.	.	.	.
(32D-\LLL	.	16r	.	.	.	16bb-\Jk)	.
32F\JJJ)	.	.	.	.	.	.	.
8C/	.	8r	.	.	.	(8.ee-\L	.
16r	.	(32d-\LLL	.	8a-/)	.	.	.
.	.	32c\JJJ)	.	.	.	.	.
(32C\LLL	.	16r	.	.	.	16aa-\Jk)	.
32E-\JJJ)	.	.	.	.	.	.	.
8DD-'/L	.	(48F/LLL	.	4r	.	2r	.
.	.	48E-/	.	.	.	.	.
.	.	48F/	.	.	.	.	.
.	.	48E-/	.	.	.	.	.
.	.	48F/	.	.	.	.	.
.	.	48E-/JJJ)	.	.	.	.	.
8EE-'/	.	(48F/LLL	.	.	.	.	.
.	.	48E-/	.	.	.	.	.
.	.	48F/	.	.	.	.	.
.	.	48E-/	.	.	.	.	.
.	.	48Dn/	.	.	.	.	.
.	.	48E-/JJJ)	.	.	.	.	.
8CC'/	.	(48B-/LLL	.	16r	.	.	.
.	.	48A-/	.	.	.	.	.
.	.	48B-/	.	.	.	.	.
.	.	48A-/	.	(32a-/LLL	.	.	.
.	.	48B-/	.	.	.	.	.
.	.	.	.	32b-/JJJ)	.	.	.
.	.	48A-/JJJ)	.	.	.	.	.
8EE-'/J	.	(48B-/LLL	.	16cc'/LL	.	.	.
.	.	48A-/	.	.	.	.	.
.	.	48B-/	.	.	.	.	.
.	.	48A-/	.	16a-'/JJ	.	.	.
.	.	48G/	.	.	.	.	.
.	.	48A-/JJJ)	.	.	.	.	.
=16	=16	=16	=16	=16	=16	=16	=16
8DD-'/L	.	16G'/LL	.	8b-'/L	pp	4r	.
.	.	(32B-/L	.	.	.	.	.
.	.	32c/J)	.	.	.	.	.
8GG'/	.	16d-'/	.	8e-'/	.	.	.
.	.	16B-'/JJ	.	.	.	.	.
8AA-'/	.	8c'/L	.	8e-'/	.	8r	.
8C'/J	.	8A-'/J	.	8e-'/J	.	8ee-'\	.
16BB-'/LL	.	(48F/LLL	.	4r	.	8dd-'\L	.
.	.	48E-/	.	.	.	.	.
.	.	48F/	.	.	.	.	.
(32GG/L	.	48E-/	.	.	.	.	.
.	.	48F/	.	.	.	.	.
32AA-/JJJ)	.	.	.	.	.	.	.
.	.	48E-/JJJ)	.	.	.	.	.
16BB-'/LL	.	(48F/LLL	.	.	.	8ee-'\	.
.	.	48E-/	.	.	.	.	.
.	.	48F/	.	.	.	.	.
16GG'/JJ	.	48E-/	.	.	.	.	.
.	.	48Dn/	.	.	.	.	.
.	.	48E-/JJJ)	.	.	.	.	.
8AA-'/L	.	8E-'/L	.	(48f/LLL	.	8cc'\	.
.	.	.	.	48e-/	.	.	.
.	.	.	.	48f/	.	.	.
.	.	.	.	48e-/	.	.	.
.	.	.	.	48f/	.	.	.
.	.	.	.	48e-/JJJ)	.	.	.
8EE-'/J	.	8c'/J	.	(48f/LLL	.	8ee-'\J	.
.	.	.	.	48e-/	.	.	.
.	.	.	.	48f/	.	.	.
.	.	.	.	48e-/	.	.	.
.	.	.	.	48dn/	.	.	.
.	.	.	.	48e-/JJJ)	.	.	.
=17	=17	=17	=17	=17	=17	=17	=17
.	.	E-q/	.	.	.	.	.
16BB-'\LL	.	8e-'\	.	8d-'/L	.	8dd-'\L	.
(32B-\L	.	.	.	.	.	.	.
32c\J)	.	.	.	.	.	.	.
.	.	e-q/	.	.	.	.	.
16d-'\	.	8ee-\	.	16B-'/L	.	8gg'\J	.
16B-'\JJ	.	.	.	16d-'/JJ	.	.	.
.	.	cq/	.	.	.	.	.
8A-'\L	.	8cc'\L	.	8c'/	.	8aa-'\L	.
[8EEn/J	.	[8C/J [8G/	.	[8g/ [8cc/	.	[8ccc\J	.
4EE/_	.	4C/_ 4G/_	.	8.g/L] 8.cc/]	.	16ccc\LL]	.
.	.	.	.	.	.	16ccc\	.
.	.	.	.	.	.	16gg'\JJ	.
.	.	.	.	16cc'/Jk	.	16r	.
8.EE/L]	.	16C/LL] 16G/]	.	8g'/	.	16r	.
.	.	16c'/	.	.	.	16gg'\	.
.	.	16G'/	.	16r	.	16r	.
16C'/Jk	.	16En'/JJ 16G'/	.	16g'/	.	(32aan\LLL	.
.	.	.	.	.	.	32bb-\JJJ)	.
=18	=18	=18	=18	=18	=18	=18	=18
16CC'/LL	pp	16En/ 16G/	pp	16en'/LL	pp	16bb-'\LL	pp
16Dn'/	.	16r	.	16f'/	.	16b-'\	.
16C'/	.	8r	.	16g'/	.	16b-'\	.
16En'/JJ	.	.	.	16c'/JJ	.	(32b-\L	.
.	.	.	.	.	.	32cc\JJJ)	.
16F'\LL	.	16r	.	16c'/LL	.	8an/	.
16D'\	.	16B-'\LL	.	16cc'/	.	.	.
16C'\	.	16An'\	.	16cc'/	.	8r	.
16F'\JJ	.	16an'\JJ	.	(32cc/L	.	.	.
.	.	.	.	32ddn/JJJ)	.	.	.
16G'\LL	.	16en'\LL	.	16b-'/LL	.	16r	.
16D'\	.	16g'\	.	16G'/	.	16bb-'\LL	.
16C'\	.	16g'\	.	16G'/	.	16bb-'\	.
16E'\JJ	.	(32g\L	.	16c'/JJ	.	(32bb-\L	.
.	.	32an\JJJ)	.	.	.	32ccc\JJJ)	.
16F'/LL	.	16f'/LL	.	16c'/LL	.	16aan'\LL	.
16D'/	.	16F'/	.	16f'/	.	16bb-'\	.
16C'/	.	16G'/	.	16en'/	.	16bb-'\	.
16EEn'/JJ	.	16C'/JJ	.	16g'/JJ	.	(32bb-\L	.
.	.	.	.	.	.	32ccc\JJJ)	.
=19	=19	=19	=19	=19	=19	=19	=19
16FF'/LL	.	16c'/LL	.	16an'/LL	.	16aan'\LL	.
16GG'/	.	16B-'/	.	16en'/	.	16gg'\	.
16AAn'/	.	16An'/	.	16f'/	.	16ff'\	.
16BB-'/JJ	.	16G'/JJ	.	16d-'/JJ	.	16een'\JJ	.
16BB-'/LL	.	16G-'/LL	.	16c'/LL	.	16ee-'\LL	.
16BBn'/	.	16F'/	.	16G'/	.	16ddn'\	.
16C'/	.	16En'/	.	16G'/	.	16cc'\	.
16C'/JJ	.	16Gn'/JJ	.	16c'/JJ	.	16en'\JJ	.
2r	.	2r	.	2r	.	2dd-^\	.
=20	=20	=20	=20	=20	=20	=20	=20
8r	.	16c'\LL	.	4r	.	(4cc\	.
.	.	16an'\	.	.	.	.	.
8C/	.	16g'\	.	.	.	.	.
.	.	16c'\JJ	.	.	.	.	.
8r	.	16c'\LL	.	(4g/	.	8.een\L	.
.	.	16a'\	.	.	.	.	.
8C/	.	16g'\	.	.	.	.	.
.	.	16c'\JJ	.	.	.	32ddn\LL	.
.	.	.	.	.	.	32cc\JJJ)	.
8r	.	16G'\LL	.	8.bn/L	.	8ee'\L	.
.	.	16a'\	.	.	.	.	.
8GG/	.	16g'\	.	.	.	8ff'\	.
.	.	16G'\JJ	.	32an/LL	.	.	.
.	.	.	.	32g/JJJ)	.	.	.
8r	.	16G'\LL	.	8a'/L	.	8gg'\J	.
.	.	16g'\	.	.	.	.	.
8GG/	.	16f'\	.	8b'/J	.	8r	.
.	.	16G'\JJ	.	.	.	.	.
=21	=21	=21	=21	=21	=21	=21	=21
8r	.	16G'/LL	.	8cc'\L	.	(4een\	.
.	.	16dn'/	.	.	.	.	.
BBnq/	.	.	.	.	.	.	.
8C/	.	16c'/	.	8ddn'\J	.	.	.
.	.	16G'/JJ	.	.	.	.	.
8r	.	(4C/	.	16een'/LL	.	8.gg\L	.
.	.	.	.	16dd'/	.	.	.
DDnq/	.	.	.	.	.	.	.
8CC/	.	.	.	16cc'/	.	.	.
.	.	.	.	16c'/JJ	.	32ff\LL	.
.	.	.	.	.	.	32ee\JJJ)	.
8r	.	8.F/L	.	16c'/LL	.	(8.aan\L	.
.	.	.	.	16dd'/	.	.	.
BBq/	.	.	.	.	.	.	.
8C/	.	.	.	16cc'/	.	.	.
.	.	32En/LL	.	16c'/JJ	.	32gg\LL	.
.	.	32Dn/JJJ)	.	.	.	32ff\JJJ)	.
8r	.	(8.G/L	.	16c'/LL	.	(8.bb-\L	.
.	.	.	.	16dd'/	.	.	.
Bnq/	.	.	.	.	.	.	.
8c\	.	.	.	16cc'/	.	.	.
.	.	32F/LL	.	16c'/JJ	.	32aa\LL	.
.	.	32E/JJJ)	.	.	.	32gg\JJJ)	.
=22	=22	=22	=22	=22	=22	=22	=22
(4FF/	p	8An'/L	p	16c/LK	p	[4ccc\	p
.	.	.	.	32r	.	.	.
.	.	.	.	32cc/Jkk	.	.	.
.	.	8B-'/	.	16cc\LK	.	.	.
.	.	.	.	32r	.	.	.
.	.	.	.	32cc\Jkk	.	.	.
8.AAn/L	.	8c'/J	.	8f/	.	16ccc\LK]	.
.	.	.	.	.	.	32r	.
.	.	.	.	.	.	32ccc\LK	.
.	.	8r	.	8r	.	16ccc\J	.
32GG/LL	.	.	.	.	.	32r	.
32FF/JJJ)	.	.	.	.	.	32ccc\Jkk	.
8GG'/L	.	4r	.	16.r	.	8een\	.
.	.	.	.	32cc\LLK	.	.	.
8AA'/	.	.	.	16cc\J	.	8r	.
.	.	.	.	32r	.	.	.
.	.	.	.	32cc\Jkk	.	.	.
8BB-'/J	.	8c'\L 8g'\	.	8en/	.	16.r	.
.	.	.	.	.	.	32ccc\LLK	.
8r	.	8c'\J 8an'\	.	8r	.	16ccc\J	.
.	.	.	.	.	.	32r	.
.	.	.	.	.	.	32ccc\Jkk	.
=23	=23	=23	=23	=23	=23	=23	=23
8BB-'/L	pp	8b-\	pp	16.r	pp	8ddd-\	pp
.	.	.	.	32dd-\LLK	.	.	.
8C'/	.	8r	.	16dd-\J	.	8r	.
.	.	.	.	32r	.	.	.
.	.	.	.	32dd-\Jkk	.	.	.
8D-'/J	.	8d-'\L	.	8B-/	.	16.r	.
.	.	.	.	.	.	32ddd-\LLK	.
8r	.	8e-'\J	.	8r	.	16ddd-\J	.
.	.	.	.	.	.	32r	.
.	.	.	.	.	.	32ddd-\Jkk	.
8D-'\L	.	16f\LK	.	16.r	.	4ddd-\	.
.	.	32r	.	.	.	.	.
.	.	32f\LK	.	32dd-\LLK	.	.	.
8E-'\J	.	16f\J	.	16dd-\J	.	.	.
.	.	32r	.	32r	.	.	.
.	.	32f\Jkk	.	32dd-\Jkk	.	.	.
16F/LK	.	16a-\LK	.	16dd-\	.	16.r	.
32r	.	32r	.	32r	.	.	.
32FF/Jkk	.	32b-\LK	.	32d-/LLK 32a-/	.	32ddd-\LLK	.
16F\LK	.	16b-\J	.	16d-/J 16a-/	.	16ddd-\J	.
32r	.	32r	.	32r	.	32r	.
32F\Jkk	.	32b-\Jkk	.	32d-/Jkk 32a-/	.	32aa-\Jkk	.
=24	=24	=24	=24	=24	=24	=24	=24
8E-'\L	f	8A-'/L	f	8a-'/L	f	16eee-'\LL	f
.	.	.	.	.	.	16ccc'\	.
[8E-\J	.	8c'/J	.	8a-'/J	.	16aa-'\	.
.	.	.	.	.	.	16eee-'\JJ	.
16E-/LL]	.	8.B-/L	.	8.g/L	.	4ddd-\	.
16FF'/	.	.	.	.	.	.	.
16EE-'/	.	.	.	.	.	.	.
16GG'/JJ	.	16E-/Jk	.	16b-/Jk	.	.	.
8AA-'/L	.	8E-'/L	.	8a-'/L	.	16ccc'\LL	.
.	.	.	.	.	.	16aa-'\	.
[8E-/J	.	8A-'/J	.	8c'/J	.	16ee-'\	.
.	.	.	.	.	.	16ccc'\JJ	.
16E-/LL]	.	8.G/L	.	4d-/	.	4bb-\	.
16FF'/	.	.	.	.	.	.	.
16EE-'/	.	.	.	.	.	.	.
16GG'/JJ	.	16E-/Jk	.	.	.	.	.
=25	=25	=25	=25	=25	=25	=25	=25
16AA-'/LL	f	16E-'/LL	f	16c'/LL	f	8aa-\L	f
16C'/	.	16E-'/	.	16a-'/	.	.	.
16AA-'/	.	16E-'/	.	16e-'/	.	[8eee-\J	.
16E-'/JJ	.	16E-'/JJ	.	16cc'/JJ	.	.	.
4D-\	.	4E-/	.	4b-\	.	16eee-\LL]	.
.	.	.	.	.	.	16ff'\	.
.	.	.	.	.	.	16ee-'\	.
.	.	.	.	.	.	16gg'\JJ	.
16C'/LL	.	16E-'/LL	.	16a-'\LL	.	16aa-'\LL	.
16FF'/	.	16E-'/J	.	16cc'\J	.	16aa-'\J	.
16EE-'/	.	8E-'/J	.	8dd-'\J	.	8bb-'\J	.
16GG'/JJ	.	.	.	.	.	.	.
16AA-'/LL	.	16E-'/LL	.	16cc'\LL	.	16aa-'\LL	.
16C'/J	.	16E-'/J	.	16a-'\J	.	16ee-'\	.
8D-^/J	.	8E-^/J	.	8b-^\J	.	16ee-'\	.
.	.	.	.	.	.	16gg'\JJ	.
=26	=26	=26	=26	=26	=26	=26	=26
(8C\L	p	(8C/L	p	8a-\L	p	(16bb-\LK	p
.	.	.	.	.	.	8aa-\)	.
.	.	.	.	ffq/LLL	.	.	.
.	.	.	.	ee-q/	.	.	.
.	.	.	.	ddnq/JJJ	.	.	.
16A-\L	.	[8A-/J)	.	16ee-'\L	.	.	.
16e-\JJ)	.	.	.	16a-'\JJ	.	16aa-\Jk	.
*	*	*^	*	*	*	*	*
(8D-\L	.	4A-/]	4D-\	.	8r	.	(16bb-\LK	.
.	.	.	.	.	.	.	8aa-\)	.
.	.	.	.	.	ggq/LLL	.	.	.
.	.	.	.	.	ffq/	.	.	.
.	.	.	.	.	eenq/JJJ	.	.	.
16A-\L	.	.	.	.	16ff'\LL	.	.	.
16f\JJ)	.	.	.	.	16a-'\JJ	.	16aa-\Jk	.
*	*	*v	*v	*	*	*	*	*
(8C\L	.	4C/ 4A-/	.	8r	.	(16bb-\LK	.
.	.	.	.	.	.	8aa-\)	.
.	.	.	.	ffq/LLL	.	.	.
.	.	.	.	ee-q/	.	.	.
.	.	.	.	ddq/JJJ	.	.	.
16A-\L	.	.	.	16ee-'\LL	.	.	.
16e-\JJ)	.	.	.	16a-'\JJ	.	16aa-\Jk	.
(8BB-\L	.	4E-/ 4d-/	.	8r	.	(8.ddd-\L	.
.	.	.	.	ee-q/LLL	.	.	.
.	.	.	.	dd-q/	.	.	.
.	.	.	.	ccq/JJJ	.	.	.
16E-\L	.	.	.	16dd-'\LL	.	.	.
16d-\JJ)	.	.	.	16e-'\JJ	.	32bb-\LL	.
.	.	.	.	.	.	32gg\JJJ)	.
=27	=27	=27	=27	=27	=27	=27	=27
(8AA-/L	.	(8E-/L 8c/	.	8r	.	(16bb-\LL	.
.	.	.	.	.	.	16aa-\	.
.	.	.	.	dd-q/LLL	.	.	.
.	.	.	.	ccq/	.	.	.
.	.	.	.	b-q/JJJ	.	.	.
16E-/L	.	8C/J)	.	16cc'/LL	.	16bb-\)	.
16A-/JJ)	.	.	.	16c'/JJ	.	16ccc'\JJ	.
(8DD-/L	.	4D-/ 4A-/	.	8r	.	16ff'\LL	.
.	.	.	.	.	.	16ff'\	.
.	.	.	.	b-q/LLL	.	.	.
.	.	.	.	a-q/	.	.	.
.	.	.	.	gq/JJJ	.	.	.
16D-/L	.	.	.	16a-'/LL	.	16gg'\	.
16F/JJ)	.	.	.	16A-'/JJ	.	16aa-'\JJ	.
(8EE-/L	.	8C/L 8A-/	.	8r	.	(16ff\LL	.
.	.	.	.	.	.	16ee-\)	.
.	.	.	.	fq/LLL	.	.	.
.	.	.	.	e-q/	.	.	.
.	.	.	.	dnq/JJJ	.	.	.
16AA-/L	.	(8cc\J	.	16e-'/LL	.	16dd-'\	.
16E-/JJ)	.	.	.	16A-'/JJ	.	16cc'\JJ	.
*	*	*	*	*	*	*^	*
(8EE-/L	.	8dd-\L)	.	8r	.	4b-\	32b-/LLL	.
.	.	.	.	.	.	.	32cc/	.
.	.	.	.	.	.	.	32b-/	.
.	.	.	.	.	.	.	32cc/	.
.	.	.	.	ffq/LLL	.	.	.	.
.	.	.	.	ee-q/	.	.	.	.
.	.	.	.	ddnq/JJJ	.	.	.	.
16GG/L	.	8d-'\J	.	16ee-'/LL	.	.	32b-/	.
.	.	.	.	.	.	.	32cc/	.
16E-/JJ)	.	.	.	16g'/JJ	.	.	32a-/	.
.	.	.	.	.	.	.	32b-/JJJ	.
*	*	*	*	*	*	*v	*v	*
=28	=28	=28	=28	=28	=28	=28	=28
16E-'\LL	f	16c'\LL	f	8r	f	8a-\L	f
16c'\	.	16a-'\	.	.	.	.	.
16A-'\	.	16e-'\	.	16c'/LL	.	[8ee-\J	.
16e-'\JJ	.	16cc'\JJ	.	16a-'/JJ	.	.	.
4d-\	.	4b-\	.	4g/	.	16ee-\LL]	.
.	.	.	.	.	.	16ff'\	.
.	.	.	.	.	.	16ee-'\	.
.	.	.	.	.	.	16gg'\JJ	.
16c'\LL	.	16a-'/LL	.	16a-'\LL	.	16aa-'\LL	.
16c'\J	.	16F'/	.	16ee-'\J	.	16aa-'\J	.
8d-'^\J	.	16E-'/	.	8ee-'^\J	.	8bb-'^\J	.
.	.	16G'/JJ	.	.	.	.	.
16c'\LL	.	16A-'/LL	.	16e-'/LL	.	16aa-'\LL	.
16A-'\J	.	16e-'/J	.	16cc'/J	.	16ccc'\	.
8B-^\J	.	8e-^/J	.	8dd-^/J	.	16ee-'\	.
.	.	.	.	.	.	16gg'\JJ	.
=29	=29	=29	=29	=29	=29	=29	=29
(8C\L	p	8r	p	(8ee-\L	p	(16bb-\LK	p
.	.	.	.	.	.	8aa-\)	.
.	.	fq/LLL	.	.	.	.	.
.	.	e-q/	.	.	.	.	.
.	.	dnq/JJJ	.	.	.	.	.
16A-\L	.	16e-'\LL	.	8cc\J)	.	.	.
16e-\JJ)	.	16A-'\JJ	.	.	.	16aa-\Jk	.
(8D-\L	.	8r	.	[4A-/ [4a-/	.	(16bb-\LK	.
.	.	.	.	.	.	8aa-\)	.
.	.	g-q/LLL	.	.	.	.	.
.	.	fq/	.	.	.	.	.
.	.	enq/JJJ	.	.	.	.	.
16A-\L	.	16f\LL	.	.	.	.	.
16f\JJ)	.	16A-'\JJ	.	.	.	16aa-\Jk	.
(8E-\L	.	8r	.	8A-/] 8a-/]	.	(16bb-\LK	.
.	.	.	.	.	.	8aa-\)	.
.	.	a-q/LLL	.	.	.	.	.
.	.	g-q/	.	.	.	.	.
.	.	fq/JJJ	.	.	.	.	.
16A-\L	.	16g-\LL	.	4.gg-\	.	.	.
16g-\JJ)	.	16c\JJ	.	.	.	16aa-\Jk	.
(8E-\L	.	8r	.	.	.	(8.ggg-\L	.
.	.	b-q/LLL	.	.	.	.	.
.	.	a-q/	.	.	.	.	.
.	.	gnq/JJJ	.	.	.	.	.
16A-\L	.	16a-\LL	.	.	.	.	.
16g-\JJ)	.	16c\JJ	.	.	.	32eee-\LL	.
.	.	.	.	.	.	32ccc\JJJ)	.
=30	=30	=30	=30	=30	=30	=30	=30
*	*	*	*	*	*	*^	*
(8FF\L	p	8r	p	(8aa-\	p	(16eee-\LL	2.r	p
.	.	.	.	.	.	16ddd-\	.	.
.	.	B-q/LLL	.	.	.	.	.	.
.	.	A-q/	.	.	.	.	.	.
.	.	Gnq/JJJ	.	.	.	.	.	.
16D-\L	.	16A-/LL	.	4dd-\)	.	16eee-'\)	.	.
16A-\JJ)	.	16D-/JJ	.	.	.	16fff'\JJ	.	.
(8GG-\L	.	8r	.	.	.	16bb-'\LL	.	.
.	.	.	.	.	.	16bb-'\	.	.
.	.	ccq/LLL	.	.	.	.	.	.
.	.	b-q/	.	.	.	.	.	.
.	.	anq/JJJ	.	.	.	.	.	.
16D-\L	.	16b-\LL	.	4d-/	.	16ccc'\	.	.
16B-\JJ)	.	16d-\JJ	.	.	.	16ddd-'\JJ	.	.
(8AA-\L	.	8r	.	.	.	(16bb-\LL	.	.
.	.	.	.	.	.	16aa-\)	.	.
.	.	ee-q/LLL	.	.	.	.	.	.
.	.	dd-q/	.	.	.	.	.	.
.	.	ccq/JJJ	.	.	.	.	.	.
16F\L	.	16dd-\LL	.	(8dd-/L	.	16gg-'\	.	.
16d-\JJ)	.	16f\JJ	.	.	.	16ff'\JJ	.	.
(8AA-\L	.	8r	.	8cc/	.	4ee-\	32ee-\LLL	.
.	.	.	.	.	.	.	32ff\	.
.	.	.	.	.	.	.	32ee-\	.
.	.	.	.	.	.	.	32ff\	.
.	.	b-q/LLL	.	.	.	.	.	.
.	.	a-q/	.	.	.	.	.	.
.	.	gnq/JJJ	.	.	.	.	.	.
16E-\L	.	16a-\LL	.	16c/L	.	.	32ee-\	.
.	.	.	.	.	.	.	32ff\	.
16c-\JJ)	.	16A-\JJ	.	16c-/JJ)	.	.	32ddn\	.
.	.	.	.	.	.	.	32ee-\JJJ	.
*	*	*	*	*	*	*v	*v	*
=31	=31	=31	=31	=31	=31	=31	=31
.	.	.	.	.	.	ddnq/LLL	.
.	.	.	.	.	.	ee-q/JJJ	.
16AA-'/LL	pp	16F'/LL	pp	16B-'/LL	pp	16ddn'\LL	pp
16FF'/	.	16Dn'/	.	16B-'/	.	16ff'\	.
16AA-'/	.	16f'/	.	16B-'/	.	16dd'\	.
16DDn'/JJ	.	16F'/JJ	.	16B-'/JJ	.	16aa-'\JJ	.
16EE-'/LL	.	16G-'/LL	.	16B-'/LL	.	4gg-\	.
16E-'/	.	16B-'/	.	16g-'/	.	.	.
16BB-'/	.	16B-'/	.	16e-'/	.	.	.
16E-'/JJ	.	16B-'/JJ	.	16b-'/JJ	.	.	.
16Dn'/LL	.	16B-'\LL	.	16b-'/LL	.	16gg-'\LL	.
16BB-'/	.	16dn'\	.	16b-'/	.	16ff'\	.
16E-'/	.	16e-'\	.	16b-'/	.	16gg-'\	.
16C'/JJ	.	16e-'\JJ	.	16a-'/JJ	.	16gg-'\JJ	.
16D-'/LL	.	16A-'\LL	.	16a-'/LL	.	16ff'\LL	.
16DD-'/	.	16A-'\	.	16f'/	.	16bb-'\	.
16EE-'/	.	16A-'\	.	16g-'/	.	16aa-'\	.
16EE-'/JJ	.	16g-'\JJ	.	16a-'/JJ	.	16ccc'\JJ	.
=32	=32	=32	=32	=32	=32	=32	=32
16DD-'/LL	p	8f\	p	16a-/LK	p	4ddd-\	p
16A-'\	.	.	.	8A-/	.	.	.
16F'\	.	8r	.	.	.	.	.
16A-'\JJ	.	.	.	16A-/Jk	.	.	.
16E-'\LL	.	8.r	.	(16B-/LK	.	4r	.
16A-'\	.	.	.	8A-/)	.	.	.
16D-'\	.	.	.	.	.	.	.
16A-'\JJ	.	16D-/	.	16A-/Jk	.	.	.
16C'\LL	.	(16B-/LK	.	(16b-/LK	.	32r	.
.	.	.	.	.	.	32a-'\LLL	.
16A-'\	.	8A-/)	.	8a-/)	.	32b-'\	.
.	.	.	.	.	.	32cc'\	.
16BB-'\	.	.	.	.	.	32dd-'\	.
.	.	.	.	.	.	32ee-'\	.
16A-'\JJ	.	16A-/Jk	.	16a-/Jk	.	32ff'\	.
.	.	.	.	.	.	32ggn'\JJJ	.
16AA-\LL	.	(8.g-\L	.	(8.gg-\L	.	32aa-'\LLL	.
.	.	.	.	.	.	32bb-'\	.
16A-\	.	.	.	.	.	32ccc'\	.
.	.	.	.	.	.	32ddd-'\JJJ	.
16AA-\	.	.	.	.	.	16eee-'\LL	.
16A-\JJ	.	32e-\LL	.	32ee-\LL	.	16gg-'\JJ	.
.	.	32c\JJJ)	.	32cc\JJJ)	.	.	.
=33	=33	=33	=33	=33	=33	=33	=33
16D-\	.	4d-\	.	4dd-\	.	16ff'\LL	.
8FF/L	.	.	.	.	.	16ff'\	.
.	.	.	.	.	.	16dd-'\	.
16FF/Jk	.	.	.	.	.	16ff'\JJ	.
(16GG-/LK	.	8.r	.	4r	.	16cc'\LL	.
8FF/)	.	.	.	.	.	16ff'\	.
.	.	.	.	.	.	16b-'\	.
16FF/Jk	.	16F/	.	.	.	16ff'\JJ	.
(16GG-/LK	.	(16G-/LK	.	32r	.	16an'\LL	.
.	.	.	.	32f'/LLL	.	.	.
8FF/)	.	8F/)	.	32gn'/	.	16ff'\	.
.	.	.	.	32an'/JJJ	.	.	.
.	.	.	.	32b-'\LLL	.	16gn'\	.
.	.	.	.	32cc'\	.	.	.
16FF/Jk	.	16F/Jk	.	32ddn'\	.	16ff'\JJ	.
.	.	.	.	32een'\JJJ	.	.	.
(8.E-/L	.	(8.e-\L	.	32ff'\LLL	.	16f\LL	.
.	.	.	.	32ggn'\	.	.	.
.	.	.	.	32aan'\	.	16ff\	.
.	.	.	.	32bb-'\JJJ	.	.	.
.	.	.	.	16ccc'\LL	.	16a\	.
32C/LL	.	32c\LL	.	16ee-'\JJ	.	16ff\JJ	.
32AAn/JJJ)	.	32An\JJJ)	.	.	.	.	.
=34	=34	=34	=34	=34	=34	=34	=34
(16C-/LK	.	32F'\LLL	.	16ddn\LK	.	16ff/LK	.
.	.	32B-'\	.	.	.	.	.
8BB-/)	.	32c'\	.	8ff\	.	8dn/	.
.	.	32dn'\	.	.	.	.	.
.	.	32e-'\	.	.	.	.	.
.	.	32f'\	.	.	.	.	.
[16BB-/Jk	.	32gn'\	.	[16ff\Jk	.	16d/Jk	.
.	.	32an'\JJJ	.	.	.	.	.
16BB-/LK]	.	32b-'\LLL	.	16ff\]	.	(8.aa-\L	.
.	.	32cc'\	.	.	.	.	.
8BB-/	.	32ddn'\	.	8dn/L	.	.	.
.	.	32ee-'\JJJ	.	.	.	.	.
.	.	16ff'\LL	.	.	.	.	.
16BB-/Jk	.	16a-\JJ	.	[16b-/Jk	.	32ff\LL	.
.	.	.	.	.	.	32ddn\JJJ)	.
8E-/L	.	16gn/LK	.	16b-/]	.	32ee-'\LLL	.
.	.	.	.	.	.	32ee-'\	.
.	.	8E-/	.	8g/L 8b-/	.	32ff'\	.
.	.	.	.	.	.	32ggn'\	.
8EE-/J	.	.	.	.	.	32aa-'\	.
.	.	.	.	.	.	32bb-'\	.
.	.	16E-/Jk	.	[16g/Jk [16b-/	.	32ccc'\	.
.	.	.	.	.	.	32dddn'\JJJ	.
8r	.	(8.B-/L	.	16g/LK] 16b-/]	.	32eee-'\LLL	.
.	.	.	.	.	.	32fff'\	.
.	.	.	.	8g/ 8b-/	.	32ggg'\	.
.	.	.	.	.	.	32aaa-'\JJJ	.
8DD-/	.	.	.	.	.	16bbb-'\LL	.
.	.	32Gn/LL	.	16g/Jk 16b-/	.	16eee-'\JJ	.
.	.	32E-/JJJ)	.	.	.	.	.
=35	=35	=35	=35	=35	=35	=35	=35
16CCn/	.	16E-/LK	.	32a-'/LLL	.	(16fff\LK	.
.	.	.	.	32A-'/	.	.	.
8A-\L	.	8C/	.	32B-'/	.	8eee-\)	.
.	.	.	.	32c'/	.	.	.
.	.	.	.	32d-'/	.	.	.
.	.	.	.	32e-'/	.	.	.
16A-\Jk	.	[16C/Jk	.	32f'/	.	16eee-\Jk	.
.	.	.	.	32g'/JJJ	.	.	.
(16B-\LK	.	16C/LK]	.	32a-'\LLL	.	(8.eee-\L	.
.	.	.	.	32b-'\	.	.	.
8A-\)	.	8C/	.	32cc'\	.	.	.
.	.	.	.	32dd-'\J	.	.	.
.	.	.	.	16ee-'\	.	.	.
16A-\Jk	.	16C/Jk	.	16a-'\JJ	.	32ccc\LL	.
.	.	.	.	.	.	32aa-\JJJ)	.
32E-'/LLL	.	32D-'/LLL	.	16g/LK	.	(16fff\LK	.
32EE-'/	.	32G'/	.	.	.	.	.
32FF'/	.	32A-'/	.	8b-/	.	8eee-\)	.
32GGn'/	.	32B-'/	.	.	.	.	.
32AA-'/	.	32c'/	.	.	.	.	.
32BB-'/	.	32d-'/	.	.	.	.	.
32Cn'/	.	32e-'/	.	[16b-/Jk	.	16ee-\Jk	.
32D-'/JJJ	.	32f'/JJJ	.	.	.	.	.
32E-'\LLL	.	32g'\LLL	.	16b-/LK]	.	(8.ddd-\L	.
32F'\	.	32a-'\	.	.	.	.	.
32G'\	.	32b-'\	.	8b-/	.	.	.
32A-'\JJJ	.	32cc'\JJJ	.	.	.	.	.
16B-'\LL	.	16dd-'\LL	.	.	.	.	.
16EE-/JJ	.	16G/JJ	.	16b-/Jk	.	32bb-\LL	.
.	.	.	.	.	.	32gg\JJJ)	.
=36	=36	=36	=36	=36	=36	=36	=36
2FF-/	p	(8G/L	p	2b-\	p	(8.ddd-\L	p
.	.	[8d-/J)	.	.	.	.	.
.	.	.	.	.	.	32bb-\LL	.
.	.	.	.	.	.	32gg\JJJ	.
.	.	4d-/_	.	.	.	4aa-\)	.
4EE-/	.	(8d-/L]	.	(4b-\	.	8bb-\	.
.	.	8G/J	.	.	.	8r	.
4r	.	8.B-/L	.	8.dd-\L	.	4r	.
.	.	32A-/LL	.	32cc\LL	.	.	.
.	.	32G/JJJ)	.	32b-\JJJ)	.	.	.
=37	=37	=37	=37	=37	=37	=37	=37
2FF-/	.	(8G/L	.	[2b-\	.	(8.ddd-\L	.
.	.	[8d-/J)	.	.	.	.	.
.	.	.	.	.	.	32bb-\LL	.
.	.	.	.	.	.	32gg\JJJ	.
.	.	4d-/_	.	.	.	4aa-\)	.
2EE-/	.	(8d-/L]	.	(4b-\]	.	(4bb-\	.
.	.	8G/J	.	.	.	.	.
.	.	4G-/)	.	4a-/)	.	8.ccc\L	.
.	.	.	.	.	.	32bb-\LL	.
.	.	.	.	.	.	32aa-\JJJ)	.
=38	=38	=38	=38	=38	=38	=38	=38
16DD-'/LL	p	8F/L	p	8a-/L	p	(8ddd-\L	p
16BB-'/	.	.	.	.	.	.	.
16AA-'/	.	16F'/L	.	16f'/L	.	8dd-\J	.
32GG-'/L	.	16A-'/JJ	.	16a-'/JJ	.	.	.
32FFn'/JJJ	.	.	.	.	.	.	.
16DD-'/LL	.	8r	.	8r	.	8.ff\L	.
16BB-'/	.	.	.	.	.	.	.
16AA-'/	.	16F'/LL	.	16f'/LL	.	.	.
32GG-'/L	.	16A-'/JJ	.	16a-'/JJ	.	32ee-\LL	.
32FF'/JJJ	.	.	.	.	.	32dd-\JJJ)	.
16CC/LL	.	8r	.	8r	.	8ee-'\L	.
16BB-/	.	.	.	.	.	.	.
16AA-/	.	16F'/LL	.	16f'/LL	.	8ff'\	.
32EE-/L	.	16A-'/JJ	.	16a-'/JJ	.	.	.
32DDn/JJJ	.	.	.	.	.	.	.
16EE-/LL	.	8r	.	8r	.	8gg-'\J	.
16C/	.	.	.	.	.	.	.
16AA-/	.	16F'/LL	.	16a-'/LL	.	8r	.
32FF/L	.	16A-'/JJ	.	16cc'/JJ	.	.	.
32EE-/JJJ	.	.	.	.	.	.	.
=39	=39	=39	=39	=39	=39	=39	=39
*k[b-e-a-d-g-]	*k[b-e-a-d-g-]	*k[b-e-a-d-g-]	*k[b-e-a-d-g-]	*k[b-e-a-d-g-]	*k[b-e-a-d-g-]	*k[b-e-a-d-g-]	*k[b-e-a-d-g-]
16DD-/LL	.	8r	.	8r	.	(4ff\	.
16BB-/	.	.	.	.	.	.	.
16AA-/	.	16D-'/LL	.	16d-'/LL	.	.	.
32GG-/L	.	16F'/JJ	.	16f'/JJ	.	.	.
32FF/JJJ	.	.	.	.	.	.	.
16FF/LL	.	8r	.	8r	.	8.aa-\L	.
16E-/	.	.	.	.	.	.	.
16D-/	.	16F'/LL	.	16f'/LL	.	.	.
32BB-/L	.	16d-'/JJ	.	16dd-'/JJ	.	32gg-\LL	.
32AA-/JJJ	.	.	.	.	.	32ff\JJJ)	.
16GG-/LL	.	8r	.	8r	.	8bb-'\L	.
16F/	.	.	.	.	.	.	.
16E-/	.	16G-'/LL	.	16g-'/LL	.	8ccc'\	.
32BB-/L	.	16c'/JJ	.	16cc'/JJ	.	.	.
32AA-/JJJ	.	.	.	.	.	.	.
16BB-\LL	.	8r	.	8r	.	8ddd-'\	.
16A-\	.	.	.	.	.	.	.
16G-\	.	16A-'\LL	.	16a-'\LL	.	8eee-'\J	.
32D-\L	.	16g-'\JJ	.	16gg-'\JJ	.	.	.
32C\JJJ	.	.	.	.	.	.	.
=40	=40	=40	=40	=40	=40	=40	=40
(4DD-/	p	8f\L	p	16ff'/LL	p	16aa-'\LL	p
.	.	.	.	16b-'/	.	16bb-'\	.
.	.	(8D-/J	.	16a-'/	.	16aa-'\	.
.	.	.	.	32g-'/L	.	32gg-'\L	.
.	.	.	.	32f'/JJJ	.	32ff'\JJJ	.
8.FF/L	.	8.F/L	.	16d-'/LL	.	16dd-'\LL	.
.	.	.	.	16b-'/	.	16bb-'\	.
.	.	.	.	16a-'/	.	16aa-'\	.
32EE-/LL	.	32E-/LL	.	32g-'/L	.	32gg-'\L	.
32DD-/JJJ)	.	32D-/JJJ)	.	32f'/JJJ	.	32ff'\JJJ	.
8EE-'/L	.	8E-'/L	.	16g-'/LL	.	16gg-'\LL	.
.	.	.	.	16b-'/	.	16bb-'\	.
8FF'/	.	8F'/	.	16a-'/	.	16aa-'\	.
.	.	.	.	32g-'/L	.	32ee-'\L	.
.	.	.	.	32f'/JJJ	.	32dd-'\JJJ	.
8GG-'/J	.	8G-'/J	.	16e-'/LL	.	16cc'\LL	.
.	.	.	.	16b-'/	.	16bb-'\	.
8r	.	8r	.	16a-'/	.	16ccc'\	.
.	.	.	.	32b-'/L	.	32ddd-'\L	.
.	.	.	.	32cc'/JJJ	.	32eee-'\JJJ	.
=41	=41	=41	=41	=41	=41	=41	=41
16DD-/LL	.	(4D-/	.	8dd-\	.	8fff\L	.
16BB-/	.	.	.	.	.	.	.
16AA-/	.	.	.	8r	.	(8ff\J	.
32GG-/L	.	.	.	.	.	.	.
32FF/JJJ	.	.	.	.	.	.	.
16FF/LL	.	8.F/L	.	8r	.	8.aa-\L	.
16E-/	.	.	.	.	.	.	.
16D-/	.	.	.	8dd-\	.	.	.
32BB-/L	.	32E-/LL	.	.	.	32gg-\LL	.
32AA-/JJJ	.	32D-/JJJ)	.	.	.	32ff\JJJ)	.
16GG-/LL	.	8G-'/L	.	(8.b-/L	.	8bb-'\L	.
16F/	.	.	.	.	.	.	.
16E-/	.	8G-'/	.	.	.	8ccc'\	.
32BB-/L	.	.	.	32a-/LL	.	.	.
32AA-/JJJ	.	.	.	32g-/JJJ)	.	.	.
16BB-\LL	.	8G-'/	.	(8.g-/L	.	8ddd-'\	.
16A-\	.	.	.	.	.	.	.
16G-\	.	8G-'/J	.	.	.	8eee-'\J	.
32D-\L	.	.	.	32f/LL	.	.	.
32C\JJJ	.	.	.	32e-/JJJ)	.	.	.
=42	=42	=42	=42	=42	=42	=42	=42
16BB-\LL	p	(8F/L	p	(8a-\L	p	(8.fff\L	p
16A-\	.	.	.	.	.	.	.
16Gn\	.	[8Gn/	.	[8b-\	.	.	.
32C\L	.	.	.	.	.	32eee-\LL	.
32BB-\JJJ	.	.	.	.	.	32ddd-\JJJ)	.
16C\LL	.	8G/]	.	8b-\]	.	8eee-'\L	.
16F\	.	.	.	.	.	.	.
16E-\	.	8A-/J)	.	8cc\J)	.	8aa-'\J	.
32D-\L	.	.	.	.	.	.	.
32C\JJJ	.	.	.	.	.	.	.
(8FF/L	.	16A-'\LL	.	(8.ff\L	.	(8aa-\L	.
.	.	16a-'\	.	.	.	.	.
[8GGn/	.	16d-'\	.	.	.	[8bb-\	.
.	.	32c'\L	.	32ee-\LL	.	.	.
.	.	32B-'\JJJ	.	32dd-\JJJ)	.	.	.
8GG/]	.	16B-'\LL	.	8ee-'\L	.	8bb-\]	.
.	.	16e-'\	.	.	.	.	.
16AA-/L	.	16e-'\	.	8a-'\J	.	8ccc\J)	.
16A-/JJ)	.	32d-'\L	.	.	.	.	.
.	.	32c'\JJJ	.	.	.	.	.
=43	=43	=43	=43	=43	=43	=43	=43
16BB-'\LL	p	(8F/L	p	(8a-/L	p	(8.fff\L	p
16A-'\	.	.	.	.	.	.	.
16Gn'\	.	8Gn/	.	8b-/	.	.	.
32C'\L	.	.	.	.	.	32eee-\LL	.
32BB-'\JJJ	.	.	.	.	.	32ddd-\JJJ)	.
16C\LL	.	8E-/)	.	8a-/)	.	8eee-'\L	.
16F\	.	.	.	.	.	.	.
16E-\	.	8C'/J	.	8a-'/J	.	8aaa-'\J	.
32D-\L	.	.	.	.	.	.	.
32C\JJJ	.	.	.	.	.	.	.
16D-/LL	.	8A-'/L	.	8f'/L	.	8bb-'\L	.
16F/	.	.	.	.	.	.	.
16E-/	.	8G'/	.	8B-'/	.	8eee-'\J	.
32FF/L	.	.	.	.	.	.	.
32EE-/JJJ	.	.	.	.	.	.	.
16AA-/LL	.	8E-'/	.	8c-'/	.	8aa-'\L	.
16A-/	.	.	.	.	.	.	.
16Dn/	.	8F'/J	.	8B-'/J	.	8bb-'\J	.
32EE-/L	.	.	.	.	.	.	.
32DDn/JJJ	.	.	.	.	.	.	.
=44	=44	=44	=44	=44	=44	=44	=44
16EE-'/LL	p	8G-'/L	p	8B-'/L	p	8gg-'\L	p
16E-'/	.	.	.	.	.	.	.
16C'/	.	8E-'/	.	8A-'/	.	8aa-'\J	.
32DD-'/L	.	.	.	.	.	.	.
32CC'/JJJ	.	.	.	.	.	.	.
16DD-'/LL	.	8F'/	.	8A-'/	.	8ff'\L	.
16A-'/	.	.	.	.	.	.	.
16F'/	.	8F'/J	.	8a-'/J	.	8ddd-'\J	.
32GG-'/L	.	.	.	.	.	.	.
32FF'/JJJ	.	.	.	.	.	.	.
16GG-'/LL	.	8G-'/L	.	8b-'\L	.	8ee-'\L	.
16G-'/	.	.	.	.	.	.	.
16E-'/	.	8G-'/J	.	8ccn'\J	.	8aa-'\J	.
32BB-'/L	.	.	.	.	.	.	.
32AA-'/JJJ	.	.	.	.	.	.	.
8D-'\	.	8F'/	.	8a-'/	.	8dd-'\	.
8r	.	8r	.	8r	.	8r	.
=45	=45	=45	=45	=45	=45	=45	=45
8BB-/L	.	2r	.	4r	.	2r	.
8E-/J	.	.	.	.	.	.	.
8AA-/	.	.	.	8c/L	.	.	.
8r	.	.	.	8a-/J	.	.	.
8E-\	.	8b-\L	.	8gn/	.	4r	.
8r	.	8ee-\	.	8r	.	.	.
8A-\	.	8cc\	.	8g-/L	.	8ee-'\L	.
8r	.	8a-\J	.	8g-/J	.	8ccc'\J	.
=46	=46	=46	=46	=46	=46	=46	=46
B-q/	.	.	.	.	.	.	.
16A-'\LL	.	4a-\	.	4f/	.	4ddd-\	.
16Gn'\	.	.	.	.	.	.	.
16A-'\	.	.	.	.	.	.	.
32d-'\L	.	.	.	.	.	.	.
32g-'\JJJ	.	.	.	.	.	.	.
*clefC4	*clefC4	*	*	*	*	*	*
g-q/	.	.	.	.	.	ee-q/	.
16f'\LL	.	16F'/LL	.	8a-'/L	.	16dd-'\LL	.
16e-'\	.	16G-'/	.	.	.	16cc'\	.
16f'\	.	16F'/	.	8A-'/J	.	16dd-'\	.
16a-'\JJ	.	16D-'/JJ	.	.	.	16ff'\JJ	.
.	.	.	.	B-q/	.	.	.
8a-'\	.	8G-'/L	.	16A-'/LL	.	8ee-'\L	.
.	.	.	.	16Gn'/	.	.	.
*clefF4	*clefF4	*	*	*	*	*	*
8AA-/	.	8G-'/	.	16A-'/	.	8ee-'\	.
.	.	.	.	16c'/JJ	.	.	.
E-q/	.	.	.	.	.	.	.
16D-'\LL	.	8F'/J	.	8d-'/	.	8dd-'\J	.
16C'\	.	.	.	.	.	.	.
16D-'\	.	8r	.	8r	.	8r	.
16F'\JJ	.	.	.	.	.	.	.
=47	=47	=47	=47	=47	=47	=47	=47
.	.	.	.	b-q/	.	.	.
8DD-/	.	8F/	.	16a-'/LL	.	4ff\	.
.	.	.	.	16gn'/	.	.	.
8r	.	8r	.	16a-'/	.	.	.
.	.	.	.	16dd-'/JJ	.	.	.
.	.	E-q/	.	.	.	gg-q/	.
16FF'/LL	.	16D-'/LL	.	4r	.	16ff'\LL	.
16GG-'/	.	16C'/	.	.	.	16ee-'\	.
16FF'/	.	16D-'/	.	.	.	16ff'\	.
16DD-'/JJ	.	16F'/JJ	.	.	.	16aa-'\JJ	.
.	.	.	.	b-q/	.	.	.
8AA-'/L	.	8E-'/L	.	16a-'/LL	.	8gg-'\L	.
.	.	.	.	16gn'/	.	.	.
8AA-'/J	.	8E-'/J	.	16a-'/	.	8gg-'\	.
.	.	.	.	16cc'/JJ	.	.	.
16D-'/LL	.	16F'/LL	.	16dd-'\LL	.	8ff'\J	.
16E-'/	.	16G-'/	.	16cc'\	.	.	.
16D-'/	.	16F'/	.	16dd-'\	.	8r	.
16DD-'/JJ	.	16D-'/JJ	.	16ff'\JJ	.	.	.
=48	=48	=48	=48	=48	=48	=48	=48
*clefC4	*clefC4	*	*	*	*	*	*
.	.	.	.	ccq/	.	.	.
8f'\L	pp	4r	pp	16b-'\LL	pp	8aa-'\L	pp
.	.	.	.	16an'\	.	.	.
8f'\J	.	.	.	16b-'\	.	8aa-'\	.
.	.	.	.	16ddn'\JJ	.	.	.
fq/	.	.	.	.	.	.	.
16e-'\LL	.	16E-'/LL	.	8ee-'\	.	8gg-'\J	.
16dn'\	.	16Dn'/	.	.	.	.	.
16e-'\	.	16E-'/	.	8r	.	8r	.
16g-'\JJ	.	16G-'/JJ	.	.	.	.	.
8D-'/L	.	8F'/L	.	8aa-'\L	.	8ccc-'\L	.
8d-'\J	.	8f'\J	.	8a-'\J	.	8ccc-'\J	.
16r	.	4r	.	4r	.	4r	.
*clefF4	*clefF4	*	*	*	*	*	*
(32FF'/LLL	.	.	.	.	.	.	.
32GG-'/J)	.	.	.	.	.	.	.
16AA-'/	.	.	.	.	.	.	.
16FF'/JJ	.	.	.	.	.	.	.
=49	=49	=49	=49	=49	=49	=49	=49
(8.BB-/L	pp	2r	pp	2r	pp	2r	pp
16E-/Jk)	.	.	.	.	.	.	.
(8.AA-/L	.	.	.	.	.	.	.
16D-/Jk)	.	.	.	.	.	.	.
*clefC4	*clefC4	*	*	*	*	*	*
8r	.	8c'/L	.	8g-'/L	.	4r	.
8c'/L	.	8A-'/	.	8a-'/	.	.	.
8d-'/	.	8d-'/J	.	8f'/J	.	16r	.
.	.	.	.	.	.	(32ff\LLL	.
.	.	.	.	.	.	32gg-\J)	.
8D-'/J	.	8r	.	8r	.	16aa-'\	.
.	.	.	.	.	.	16ff'\JJ	.
=50	=50	=50	=50	=50	=50	=50	=50
*clefF4	*clefF4	*	*	*	*	*	*
8r	pp	8.r	pp	8r	pp	(8.bb-\L	pp
(4GG-/	.	.	.	(32c/LLL	.	.	.
.	.	.	.	32B-/JJJ)	.	.	.
.	.	(32an\LLL	.	16r	.	16eee-\Jk)	.
.	.	32b-\JJJ)	.	.	.	.	.
.	.	8.r	.	8r	.	(8.aa-\L	.
8FF/)	.	.	.	(32B-/LLL	.	.	.
.	.	.	.	32A-/JJJ)	.	.	.
.	.	(32gn\LLL	.	16r	.	16ddd-\Jk)	.
.	.	32a-\JJJ)	.	.	.	.	.
8GG-'/L	.	(48B-/LLL	.	8r	.	4r	.
.	.	48A-/	.	.	.	.	.
.	.	48B-/	.	.	.	.	.
.	.	48A-/	.	.	.	.	.
.	.	48B-/	.	.	.	.	.
.	.	48A-/JJJ)	.	.	.	.	.
8AA-'/	.	(48B-/LLL	.	8e-/L	.	.	.
.	.	48A-/	.	.	.	.	.
.	.	48B-/	.	.	.	.	.
.	.	48A-/	.	.	.	.	.
.	.	48Gn/	.	.	.	.	.
.	.	48A-/JJJ)	.	.	.	.	.
8FF'/	.	(48e-\LLL	.	8A-/	.	16r	.
.	.	48d-\	.	.	.	.	.
.	.	48e-\	.	.	.	.	.
.	.	48d-\	.	.	.	(32dd-\LLL	.
.	.	48e-\	.	.	.	.	.
.	.	.	.	.	.	32ee-\J)	.
.	.	48d-\JJJ)	.	.	.	.	.
8AA-'/J	.	(48e-\LLL	.	8f/J	.	16ff'\	.
.	.	48d-\	.	.	.	.	.
.	.	48e-\	.	.	.	.	.
.	.	48d-\	.	.	.	16dd-'\JJ	.
.	.	48c\	.	.	.	.	.
.	.	48d-\JJJ)	.	.	.	.	.
=51	=51	=51	=51	=51	=51	=51	=51
8GG-'/L	pp	16e-/LL	pp	8r	pp	8ee-'\L	pp
.	.	(32E-/L	.	.	.	.	.
.	.	32F/JJJ)	.	.	.	.	.
8C'/	.	16G-'/LL	.	8e-/L	.	8a-'\	.
.	.	16E-'/JJ	.	.	.	.	.
8D-'/	.	8F'/L	.	8A-/J	.	8a-'\	.
8F'/J	.	8d-'/J	.	8r	.	8aa-'\J	.
16E-'/LL	.	4r	.	(48b-/LLL	.	8gg-'\L	.
.	.	.	.	48a-/	.	.	.
.	.	.	.	48b-/	.	.	.
(32C'/L	.	.	.	48a-/	.	.	.
.	.	.	.	48b-/	.	.	.
32D-'/J)	.	.	.	.	.	.	.
.	.	.	.	48a-/JJJ)	.	.	.
16E-'/	.	.	.	(48b-/LLL	.	8aa-'\	.
.	.	.	.	48a-/	.	.	.
.	.	.	.	48b-/	.	.	.
16C'/JJ	.	.	.	48a-/	.	.	.
.	.	.	.	48gn/	.	.	.
.	.	.	.	48a-/JJJ)	.	.	.
8D-'/L	.	(48B-/LLL	.	16a-'\LL	.	8ff'\	.
.	.	48A-/	.	.	.	.	.
.	.	48B-/	.	.	.	.	.
.	.	48A-/	.	(32dd-\L	.	.	.
.	.	48B-/	.	.	.	.	.
.	.	.	.	32ee-\J)	.	.	.
.	.	48A-/JJJ)	.	.	.	.	.
8AA-'/J	.	(48B-/LLL	.	16ff'\	.	8aa-'\J	.
.	.	48A-/	.	.	.	.	.
.	.	48B-/	.	.	.	.	.
.	.	48A-/	.	16dd-'\JJ	.	.	.
.	.	48Gn/	.	.	.	.	.
.	.	48A-/JJJ)	.	.	.	.	.
=52	=52	=52	=52	=52	=52	=52	=52
.	.	A-q/	.	.	.	.	.
16E-'\LL	.	8a-'\L	.	8cc'/L	.	8gg-'\L	.
(32e-\L	.	.	.	.	.	.	.
32f\J)	.	.	.	.	.	.	.
.	.	A-q/	.	.	.	.	.
16g-'\	.	8a-'\J	.	16e-'/L	.	8ccc'\	.
16e-'\JJ	.	.	.	16g-'/JJ	.	.	.
.	.	Fq/	.	.	.	.	.
8d-'\L	.	8f'\L	.	16r	.	8ddd-'\	.
.	.	.	.	16f'/	.	.	.
[8AAn/J [8F/	.	[8f\J [8cc\	.	[8cc\ [8ff\	.	[8fff\J	.
4AA/_ 4F/_	.	4f\_ 4cc\_	.	8.cc\L] 8.ff\]	.	16fff\LL]	.
.	.	.	.	.	.	16fff'\	.
.	.	.	.	.	.	16ccc'\JJ	.
.	.	.	.	16ff'\Jk	.	16r	.
8.AA\L] 8.F\]	.	16f\LL] 16cc\]	.	8cc'\	.	16r	.
.	.	16f'\	.	.	.	16ccc'\LK	.
.	.	16c'\	.	16r	.	16r	.
16F'\Jk	.	16An'\JJ	.	16f/ 16cc/	.	(32dddn\LL	.
.	.	.	.	.	.	32eee-\JJJ)	.
=53	=53	=53	=53	=53	=53	=53	=53
16FF'/LL	pp	16an'\LL	pp	16f'/LL 16cc'/	pp	16eee-'\LL	pp
16Gn'\	.	16B-'\	.	16f'/ 16cc'/	.	16e-'/	.
16F'\	.	16An'\	.	16f'/ 16cc'/	.	16e-'/	.
16An'\JJ	.	16c'\JJ	.	16f'/JJ 16cc'/	.	32e-/L	.
.	.	.	.	.	.	32f/JJJ	.
16B-'\LL	.	16b-'\LL	.	16f'\LL 16ddn'\	.	8dn/	.
16G'\	.	16f'\ 16ddn'\	.	16ff'\	.	.	.
16F'\	.	16f'\ 16dd'\	.	16ff'\	.	8r	.
16Bn'\JJ	.	16f'\JJ 16dd'\	.	(32ff\L	.	.	.
.	.	.	.	32ggn\JJJ)	.	.	.
16c'\LL	.	16f'\LL 16an'\	.	16ee-'\LL	.	16r	.
(32EE-/L	.	16An'\	.	16ff'\	.	16ccc'\LL	.
32DDn/J)	.	.	.	.	.	.	.
16EE-'/	.	16f'\	.	16ff'\	.	16ccc'\	.
16FF'/JJ	.	16f'\JJ 16a'\	.	16ff'\JJ	.	(32ccc\L	.
.	.	.	.	.	.	32dddn\JJJ)	.
16DDn'/LL	.	16f'\LL 16b-'\	.	16ff'\LL	.	16bb-'\LL	.
16GGn'/	.	16B-'\	.	16ee-'\	.	16eee-'\	.
16FF'/	.	16c'\	.	16aan'\	.	16eee-'\	.
16AAn'/JJ	.	16f'\JJ	.	16ccc'\JJ	.	(32eee-\L	.
.	.	.	.	.	.	32fff\JJJ)	.
=54	=54	=54	=54	=54	=54	=54	=54
16BB-'/LL	.	16f'\LL	.	16ff'\LL	.	16dddn'\LL	.
16C'/	.	16e-'\	.	16an'\	.	16ccc'\	.
16Dn'/	.	16dn'\	.	16b-'\	.	16bb-'\	.
16E-'/JJ	.	16c'\JJ	.	16g-'\JJ	.	16aan'\JJ	.
16E-'\LL	.	16Bn'\LL	.	16f'/LL	.	16aa-'\LL	.
16En'\	.	16B-'\	.	16c'/	.	16ggn'\	.
16F'\	.	16B-'\	.	16dn'/	.	16ff'\	.
16F'\JJ	.	16c'\JJ	.	16f'/JJ	.	16an'\JJ	.
2r	.	2r	.	2r	.	2gg-^\	.
=55	=55	=55	=55	=55	=55	=55	=55
8r	p	16f'\LL	p	4r	p	(4ff\	p
.	.	16ddn'\	.	.	.	.	.
8f\	.	16cc'\	.	.	.	.	.
.	.	16f'\JJ	.	.	.	.	.
8r	.	16f'\LL	.	(4cc\	.	8.aan\L	.
.	.	16dd'\	.	.	.	.	.
8f\	.	16cc'\	.	.	.	.	.
.	.	16f'\JJ	.	.	.	32ggn\LL	.
.	.	.	.	.	.	32ff\JJJ)	.
8r	.	16c'\LL	.	8.een\L	.	8gg'\L	.
.	.	16dd'\	.	.	.	.	.
8c\	.	16cc'\	.	.	.	8aa'\	.
.	.	16c'\JJ	.	32ddn\LL	.	.	.
.	.	.	.	32cc\JJJ)	.	.	.
8r	.	16c\LL	.	8dd'\L	.	8bb-'\J	.
.	.	16dd\	.	.	.	.	.
8c\	.	16cc\	.	8ee'\J	.	8r	.
.	.	16c\JJ	.	.	.	.	.
=56	=56	=56	=56	=56	=56	=56	=56
8r	.	16c\LL	.	8ff'\L	.	(4aan\	.
.	.	16ddn\	.	.	.	.	.
Enq/	.	.	.	.	.	.	.
8F\	.	16cc\	.	8ggn'\J	.	.	.
.	.	16c\JJ	.	.	.	.	.
8r	.	(4f\	.	16aan'\LL	.	8.ccc\L	.
.	.	.	.	16gg'\	.	.	.
enq/	.	.	.	.	.	.	.
8f\	.	.	.	16ff'\	.	.	.
.	.	.	.	16f'\JJ	.	32bb-\LL	.
.	.	.	.	.	.	32aa\JJJ)	.
8r	.	8.b-\L	.	16f'/LL	.	(8.dddn\L	.
.	.	.	.	16gg'\	.	.	.
EEnq/	.	.	.	.	.	.	.
8FF/	.	.	.	16ff'\	.	.	.
.	.	32an\LL	.	16f'/JJ	.	32ccc\LL	.
.	.	32gn\JJJ	.	.	.	32bb-\JJJ)	.
8r	.	8.cc\L	.	16f/LL	.	(8.eee-\L	.
.	.	.	.	16gg\	.	.	.
Eq/	.	.	.	.	.	.	.
8F\	.	.	.	16ff\	.	.	.
.	.	32b-\LL	.	16f/JJ	.	32ddd\LL	.
.	.	32a\JJJ)	.	.	.	32ccc\JJJ)	.
=57	=57	=57	=57	=57	=57	=57	=57
(4BB-/	p	8b-'\L	p	16f\LK	p	8dddn'\L	p
.	.	.	.	32r	.	.	.
.	.	.	.	32ff\LK	.	.	.
.	.	8cc'\J	.	16ff\J	.	8eee-'\J	.
.	.	.	.	32r	.	.	.
.	.	.	.	32ff\Jkk	.	.	.
8.Dn/L	.	(8.f\L	.	8b-\	.	16fff\LK	.
.	.	.	.	.	.	32r	.
.	.	.	.	.	.	32fff\LK	.
.	.	.	.	8r	.	16fff\J	.
32C/LL	.	32e-\LL	.	.	.	32r	.
32BB-/JJJ)	.	32dn\JJJ)	.	.	.	32fff\Jkk	.
8C'/L	.	8e-'\L	.	16.r	.	8aan\	.
.	.	.	.	32ff\LLK	.	.	.
8D'/	.	8B-'\J	.	16ff\J	.	8r	.
.	.	.	.	32r	.	.	.
.	.	.	.	32ff\Jkk	.	.	.
8E-'/J	.	8c'\L	.	8an\L	.	16.r	.
.	.	.	.	.	.	32fff\LLK	.
8r	.	8d'\J	.	8b-\J	.	16fff\J	.
.	.	.	.	.	.	32r	.
.	.	.	.	.	.	32fff\Jkk	.
=58	=58	=58	=58	=58	=58	=58	=58
8E-'\L	.	16e-\LK	.	16b-\LK	.	8ggg-\	.
.	.	32r	.	32r	.	.	.
.	.	32e-\LK	.	32gg-\LK	.	.	.
8F'\	.	16e-\J	.	16gg-\J	.	8r	.
.	.	32r	.	32r	.	.	.
.	.	32e-\Jkk	.	32gg-\Jkk	.	.	.
8G-'\J	.	8e-'\L	.	16gg-\LK	.	16.r	.
.	.	.	.	32r	.	.	.
.	.	.	.	32ee-\LK	.	32ggg-\LLK	.
8r	.	8f'\J	.	16ee-\J	.	16ggg-\J	.
.	.	.	.	32r	.	32r	.
.	.	.	.	32ee-\Jkk	.	32ggg-\Jkk	.
=	=	=	=	=	=	=	=
8G-'\L	.	16g-\LK	.	16ee-\LK	.	8ggg-\	.
.	.	32r	.	32r	.	.	.
.	.	32e-\LK	.	32gg-\LK	.	.	.
8A-'\J	.	16e-\J	.	16gg-\J	.	8r	.
.	.	32r	.	32r	.	.	.
.	.	32e-\Jkk	.	32gg-\Jkk	.	.	.
16B-\LK	.	16e-\LK	.	16gg-\LK	.	16.r	.
32r	.	32r	.	32r	.	.	.
32BB-\Jkk	.	32e-\LK 32dd-\	.	32gg-\LK	.	32ggg-\LLK	.
16B-\LK	.	16e-\J 16dd-\	.	16gg-\J	.	16ggg-\J	.
32r	.	32r	.	32r	.	32r	.
32B-\Jkk	.	32e-\Jkk 32dd-\	.	32ff\Jkk	.	32ddd-\Jkk	.
=59	=59	=59	=59	=59	=59	=59	=59
8A-'\L	f	8f'\L	f	8ff'\L	f	16aaa-'\LL	f
.	.	.	.	.	.	16ff'\	.
[8A-\J	.	8f'\J	.	8a-'\J	.	16dd-'\	.
.	.	.	.	.	.	16aa-'\JJ	.
16A-\LL]	.	8.e-/L	.	8.cc\L	.	4gg-\	.
16BB-'\	.	.	.	.	.	.	.
16AA-'\	.	.	.	.	.	.	.
16C'\JJ	.	16A-/Jk	.	16ee-\Jk	.	.	.
8D-'\L	.	8A-'/L	.	8dd-'/L	.	16ff'\LL	.
.	.	.	.	.	.	16ddd-'\	.
[8A-\J	.	8d-'/J	.	8f'/J	.	16aa-'\	.
.	.	.	.	.	.	16fff'\JJ	.
16A-\LL]	.	8.c/L	.	4g-/	.	4eee-\	.
16BB-'\	.	.	.	.	.	.	.
16AA-'\	.	.	.	.	.	.	.
16C'\JJ	.	16A-/Jk	.	.	.	.	.
=60	=60	=60	=60	=60	=60	=60	=60
16D-'\LL	.	16A-'\LL	.	16f'/LL	.	8ddd-\L	.
*clefC4	*clefC4	*	*	*	*	*	*
16f'\	.	16a-'\	.	16dd-'\	.	.	.
16d-'\	.	16f'\	.	16dd-'\	.	[8aa-\J	.
16a-'\JJ	.	16dd-'\JJ	.	16ff'\JJ	.	.	.
4g-'\	.	4cc\	.	4ee-\	.	16aa-\LL]	.
.	.	.	.	.	.	16bb-'\	.
.	.	.	.	.	.	16aa-'\	.
.	.	.	.	.	.	16ccc'\JJ	.
16f'\LL	.	16a-'\LL	.	16dd-'\LL	.	16ddd-'\LL	.
*clefF4	*clefF4	*	*	*	*	*	*
16BB-'\	.	16d-'\J	.	16dd-'\J	.	16ddd-'\J	.
16AA-'\	.	8g-'\J	.	8a-'\J	.	8eee-'\J	.
16C'\JJ	.	.	.	.	.	.	.
16D-'/LL	.	16f'/LL	.	16a-'/LL	.	16ddd-'\LL	.
16DD-'/J	.	16D-'/	.	16f'/J	.	16bb-'\	.
8EE-^/J	.	16c'/	.	8g-^/J	.	16aa-'\	.
.	.	16A-'^/JJ	.	.	.	16cc'^\JJ	.
=61	=61	=61	=61	=61	=61	=61	=61
(8FF/L	p	(4A-/	p	8r	p	(16ee-\LK	p
.	.	.	.	.	.	8dd-\)	.
.	.	.	.	b-q/LLL	.	.	.
.	.	.	.	a-q/	.	.	.
.	.	.	.	gnq/JJJ	.	.	.
16D-/L	.	.	.	16a-'/LL	.	.	.
16A-/JJ)	.	.	.	16d-'/JJ	.	16dd-\Jk	.
(8GG-/L	.	4G-/	.	8r	.	(16ee-\LK	.
.	.	.	.	.	.	8dd-\)	.
.	.	.	.	cccq/LLL	.	.	.
.	.	.	.	bb-q/	.	.	.
.	.	.	.	aanq/JJJ	.	.	.
16D-/L	.	.	.	16bb-'\LL	.	.	.
16B-/JJ)	.	.	.	16b-'\JJ	.	16dd-\Jk	.
(8FF/L	.	4A-/)	.	8r	.	(16ee-\LK	.
.	.	.	.	.	.	8dd-\)	.
.	.	.	.	b-q/LLL	.	.	.
.	.	.	.	a-q/	.	.	.
.	.	.	.	gnq/JJJ	.	.	.
16D-/L	.	.	.	16a-'/LL	.	.	.
16A-/JJ)	.	.	.	16d-'/JJ	.	16dd-\Jk	.
(8EE-/L	.	4A-\ 4g-\	.	8r	.	(8.gg-\L	.
.	.	.	.	b-q/LLL	.	.	.
.	.	.	.	a-q/	.	.	.
.	.	.	.	gq/JJJ	.	.	.
16AA-/L	.	.	.	16a-'/LL	.	.	.
16G-/JJ)	.	.	.	16A-'/JJ	.	32ee-\LL	.
.	.	.	.	.	.	32cc\JJJ)	.
=62	=62	=62	=62	=62	=62	=62	=62
*	*	*	*	*	*	*^	*
(8DD-/L	.	4A-\ 4f\	.	8r	.	(16ee-\LL	2.r	.
.	.	.	.	.	.	16dd-\	.	.
.	.	.	.	ee-q/LLL	.	.	.	.
.	.	.	.	dd-q/	.	.	.	.
.	.	.	.	ccq/JJJ	.	.	.	.
16AA-/L	.	.	.	16dd-'/LL	.	16ee-\)	.	.
16D-/JJ)	.	.	.	16f'/JJ	.	16ff'\JJ	.	.
(8GG-/L	.	(4G-/	.	8r	.	16b-'\LL	.	.
.	.	.	.	.	.	16b-'\	.	.
.	.	.	.	ccq/LLL	.	.	.	.
.	.	.	.	b-q/	.	.	.	.
.	.	.	.	anq/JJJ	.	.	.	.
16BB-/L	.	.	.	16b-'/LL	.	16cc'\	.	.
16G-/JJ)	.	.	.	16B-'/JJ	.	16dd-'\JJ	.	.
(8AA-/L	.	4D-/	.	8r	.	(16b-/LL	.	.
.	.	.	.	.	.	16a-/)	.	.
.	.	.	.	e-q/LLL	.	.	.	.
.	.	.	.	d-q/	.	.	.	.
.	.	.	.	cq/JJJ	.	.	.	.
16D-/L	.	.	.	16d-'/LL	.	16g-'/	.	.
16F/JJ)	.	.	.	16A-'/JJ	.	16f'/JJ	.	.
(8AA-/L	.	8C/L)	.	8r	.	4e-/	32e-/LLL	.
.	.	.	.	.	.	.	32f/	.
.	.	.	.	.	.	.	32e-/	.
.	.	.	.	.	.	.	32f/	.
.	.	.	.	dd-q/LLL	.	.	.	.
.	.	.	.	ccq/	.	.	.	.
.	.	.	.	b-q/JJJ	.	.	.	.
16E-/L	.	8g-\J	.	16cc'/LL	.	.	32e-/	.
.	.	.	.	.	.	.	32f/	.
16c/JJ)	.	.	.	16e-'/JJ	.	.	32d-/	.
.	.	.	.	.	.	.	32e-/JJJ	.
*	*	*	*	*	*	*v	*v	*
=63	=63	=63	=63	=63	=63	=63	=63
*clefC4	*clefC4	*	*	*	*	*	*
16d-'\LL	.	16f'\LL	.	4r	.	8d-/	.
16f'\	.	16a-'\	.	.	.	.	.
16d-'\	.	16f'\	.	.	.	16r	.
16a-'\JJ	.	16dd-'\JJ	.	.	.	16ff'\	.
4a-\	.	4cc-\	.	16r	.	16dd-'\LL	.
.	.	.	.	16ee-'\LL	.	16aa-'\	.
.	.	.	.	16dd-'\	.	16ff'\	.
.	.	.	.	16ff'\JJ	.	16ddd-'\JJ	.
16g-'\LL	.	16b-'\LL	.	16gg-'\LL	.	16ddd-'\LL	.
16g-'\J	.	16b-'\J	.	16gg-'\J	.	16eee-'\	.
8d-'^\J	.	8cc-'^\J	.	8aa-^\J	.	16ddd-'\	.
.	.	.	.	.	.	16fff'\JJ	.
16g-\	.	16b-'\LL	.	16gg-'\LL	.	16ggg-'\LL	.
*clefF4	*clefF4	*	*	*	*	*	*
16EE-'/LL	.	16dd-'\J	.	16bb-'\J	.	16ggg-'\J	.
16DD-'/	.	8dd-^\J	.	8ccc-^\J	.	8aaa-^\J	.
16FF'/JJ	.	.	.	.	.	.	.
=64	=64	=64	=64	=64	=64	=64	=64
(8GG-\L	.	(16dd-\LK	.	8bb-\L	.	(4ggg-\	.
.	.	8g-\)	.	.	.	.	.
.	.	.	.	cc-q/LLL	.	.	.
.	.	.	.	b-q/	.	.	.
.	.	.	.	a-q/JJJ	.	.	.
16D-\L	.	.	.	16b-'/L	.	.	.
16B-\JJ)	.	16g-\Jk	.	16B-'/JJ	.	.	.
(8C-\L	.	(16a-\LK	.	8r	.	4eee-\)	.
.	.	8g-\)	.	.	.	.	.
.	.	.	.	aa-q/LLL	.	.	.
.	.	.	.	gg-q/	.	.	.
.	.	.	.	ffq/JJJ	.	.	.
16G-\L	.	.	.	16gg-'\LL	.	.	.
16e-\JJ)	.	16g-\Jk	.	16g-'\JJ	.	.	.
(8BB-\L	.	(16a-\LK	.	8r	.	32ddd-'\LLL	.
.	.	.	.	.	.	32dd-'\	.
.	.	8g-\)	.	.	.	32ee-'\	.
.	.	.	.	.	.	32ff'\	.
.	.	.	.	ee-q/LLL	.	.	.
.	.	.	.	dd-q/	.	.	.
.	.	.	.	ccnq/JJJ	.	.	.
16G-\L	.	.	.	16dd-'\LL	.	32gg-'\	.
.	.	.	.	.	.	32aa-'\	.
16d-\JJ)	.	16g-\Jk	.	16g-'\JJ	.	32bb-'\	.
.	.	.	.	.	.	32ccc-'\JJJ	.
(8AA-\L	.	(8.cc-\L	.	8r	.	32ddd-'\LLL	.
.	.	.	.	.	.	32eee-'\	.
.	.	.	.	.	.	32fff'\	.
.	.	.	.	.	.	32ggg-'\J	.
.	.	.	.	ee-q/LLL	.	.	.
.	.	.	.	dd-q/	.	.	.
.	.	.	.	ccq/JJJ	.	.	.
16D-\L	.	.	.	16dd-'\LL	.	16aaa-'\	.
16c-\JJ)	.	32a-\LL	.	16d-'/JJ	.	16ccc-'\JJ	.
.	.	32f\JJJ)	.	.	.	.	.
=65	=65	=65	=65	=65	=65	=65	=65
(8GG-\L	.	8g-\L	.	(4dd-\	.	(16ccc-\LL	.
.	.	.	.	.	.	16bb-\	.
.	.	a-q/LLL	.	.	.	.	.
.	.	g-q/	.	.	.	.	.
.	.	fq/JJJ	.	.	.	.	.
16D-\L	.	16g-'\L	.	.	.	16ccc-\)	.
16B-\JJ)	.	16B-'\JJ	.	.	.	16ddd-'\JJ	.
(8C-\L	.	8r	.	[4g-/)	.	16eee-'\LL	.
.	.	.	.	.	.	16eee-'\	.
.	.	fq/LLL	.	.	.	.	.
.	.	e-q/	.	.	.	.	.
.	.	dnq/JJJ	.	.	.	.	.
16E-\L	.	16e-'/LL	.	.	.	16fff'\	.
16c-\JJ)	.	16G-'/JJ	.	.	.	16ggg-'\JJ	.
(8D-\L	.	8r	.	4g-/]	.	(16eee-\LL	.
.	.	.	.	.	.	16ddd-\)	.
.	.	e-q/LLL	.	.	.	.	.
.	.	d-q/	.	.	.	.	.
.	.	cnq/JJJ	.	.	.	.	.
16G-\L	.	16d-'/LL	.	.	.	16ccc-'\	.
16B-\JJ)	.	16D-'/JJ	.	.	.	16bb-'\JJ	.
8r;	.	8r;	.	8f/;	.	4aa-\;	.
8r;	.	8r;	.	8r;	.	.	.
*MM20	*MM20	*MM20	*MM20	*MM20	*MM20	*MM20	*MM20
.	.	.	.	.	.	32ggnq/LLL	.
.	.	.	.	.	.	32aa-q/JJJ	.
.	.	.	.	.	.	(32A-q/LLL	.
.	.	.	.	.	.	32B-q/	.
.	.	.	.	.	.	32c-q/	.
.	.	.	.	.	.	32d-q/	.
.	.	.	.	.	.	32e-q/	.
.	.	.	.	.	.	32fq/	.
.	.	.	.	.	.	32g-q/	.
.	.	.	.	.	.	32a-q/	.
.	.	.	.	.	.	32b-q/	.
.	.	.	.	.	.	32cc-q/	.
.	.	.	.	.	.	32dd-q/	.
.	.	.	.	.	.	32ee-q/	.
.	.	.	.	.	.	32ffq/	.
.	.	.	.	.	.	32gg-q/	.
.	.	.	.	.	.	32aa-q/	.
.	.	.	.	.	.	32bb-q/	.
.	.	.	.	.	.	32ccc-q/	.
.	.	.	.	.	.	32ddd-q/JJJ)	.
=66	=66	=66	=66	=66	=66	=66	=66
*MM64	*MM64	*MM64	*MM64	*MM64	*MM64	*MM64	*MM64
4r	.	2r	.	16c-'/LL	.	(8.eee-\L	.
.	.	.	.	16a-'/	.	.	.
.	.	.	.	16g-'/	.	.	.
.	.	.	.	16c-'/JJ	.	32ddd-\LL	.
.	.	.	.	.	.	32ccc-\JJJ)	.
16r	.	.	.	16B-'/LL	.	8ddd-'\L	.
16G-'\LL	.	.	.	16g-'/	.	.	.
16D-'\	.	.	.	16d-'/	.	8gg-'\J	.
16BB-'\JJ	.	.	.	16B-'/JJ	.	.	.
16C-'\LL	.	(8E-/	.	(8.ee-\L	.	(8e-/	.
16A-'\	.	.	.	.	.	.	.
16F'\	.	4F/	.	.	.	4f/	.
16AA-'\JJ	.	.	.	32dd-\LL	.	.	.
.	.	.	.	32cc-\JJJ)	.	.	.
16BB-'\LL	.	.	.	8dd-'\L	.	.	.
16G-'\	.	.	.	.	.	.	.
16D-'\	.	8G-/)	.	8g-'\J	.	8g-/)	.
16BB-'\JJ	.	.	.	.	.	.	.
=67	=67	=67	=67	=67	=67	=67	=67
16AA-'\LL	p	(4c-/	p	(8e-/	p	(8.eee-\L	p
16G-'\	.	.	.	.	.	.	.
16F'\	.	.	.	4f/	.	.	.
16AA-'\JJ	.	.	.	.	.	32ddd-\LL	.
.	.	.	.	.	.	32ccc-\JJJ)	.
16BB-'\LL	.	8B-/L)	.	.	.	8ddd-'\L	.
16A-'\	.	.	.	.	.	.	.
16G-'\	.	8B-'/J	.	[8g-/)	.	8ggg-'\J	.
16BB-'\JJ	.	.	.	.	.	.	.
16C-'\LL	.	8A-'/L	.	8g-/L]	.	8aa-'\L	.
16c-'\	.	.	.	.	.	.	.
16EE-'/	.	8A-'/J	.	8f'/J	.	8ddd-'\J	.
16DD-'/JJ	.	.	.	.	.	.	.
8GG-'/	.	8B-'/	.	8g-'/	.	8gg-'\	.
8c-\	.	8r	.	8r	.	8r	.
=68	=68	=68	=68	=68	=68	=68	=68
8F\L	.	8r	.	4r	.	2r	.
8B-\	.	8dn\L	.	.	.	.	.
8E-\	.	8g-\J	.	8r	.	.	.
8A-\J	.	8r	.	8cc-\	.	.	.
8Dn\L	.	8r	.	8f/L	.	8r	.
8Gn\	.	8B-\L	.	8b-/	.	8b-'\L	.
8D-\	.	8gn\J	.	8en/	.	8een'\	.
8G\J	.	8Gn/	.	8b-/J	.	8bb-'\J	.
=69	=69	=69	=69	=69	=69	=69	=69
8Cn\L	pp	8Gn/	pp	24r	pp	8een'\L	pp
.	.	.	.	24en'/LL	.	.	.
.	.	.	.	24b-'/JJ	.	.	.
8Gn\J	.	24r	.	24een'/LL	.	8bb-'\J	.
.	.	24en'/LL	.	24e'/JJ	.	.	.
.	.	24B-'/JJ	.	24r	.	.	.
8C\L	.	8An/	.	24r	.	8ee-'\L	.
.	.	.	.	24e-'/LL	.	.	.
.	.	.	.	24an'/JJ	.	.	.
8F\J	.	24r	.	24ee-'/LL	.	8aan'\J	.
.	.	24e-'/LL	.	24e-'/JJ	.	.	.
.	.	24A'/JJ	.	24r	.	.	.
8BBn\L	.	8A-/	.	24r	.	8ddn'\L	.
.	.	.	.	24dn/LL	.	.	.
.	.	.	.	24a-/JJ	.	.	.
8F\J	.	24r	.	24ddn/LL	.	8aa-'\J	.
.	.	24dn/LL	.	24d/JJ	.	.	.
.	.	24A-/JJ	.	24r	.	.	.
8BB-\L	.	8Gn/	.	24r	.	8dd-'\L	.
.	.	.	.	24c#/LL	.	.	.
.	.	.	.	24gn/JJ	.	.	.
8En\J	.	24r	.	24cc#/LL	.	8ggn'\J	.
.	.	24c#/LL	.	24c#/JJ	.	.	.
.	.	24G/JJ	.	24r	.	.	.
=70	=70	=70	=70	=70	=70	=70	=70
8BB-/L	.	8En/ 8Gn/	.	24r	.	(8.ggn\L	.
.	.	.	.	24c#/LL	.	.	.
.	.	.	.	24gn/JJ	.	.	.
8En/J	.	24r	.	24cc#/LL	.	.	.
.	.	24d-/LL	.	24c#/JJ	.	.	.
.	.	.	.	.	.	32ff\LL	.
.	.	24G/JJ	.	24r	.	.	.
.	.	.	.	.	.	32een\JJJ)	.
8BB-/L	.	8r	.	24r	.	(8.gg\L	.
.	.	.	.	24c#/LL	.	.	.
.	.	.	.	24g/JJ	.	.	.
8E/J	.	24r	.	24cc#/LL	.	.	.
.	.	24d-/LL	.	24c#/JJ	.	.	.
.	.	.	.	.	.	32ff\LL	.
.	.	24G/JJ	.	24r	.	.	.
.	.	.	.	.	.	32ee\JJJ)	.
8GGn/L	.	8r	.	24r	.	(8.bb-\L	.
.	.	.	.	24c#/LL	.	.	.
.	.	.	.	24b-/JJ	.	.	.
8E/J	.	24r	.	24cc#/LL	.	.	.
.	.	24d-/LL	.	24c#/JJ	.	.	.
.	.	.	.	.	.	32aan\LL	.
.	.	24G/JJ	.	24r	.	.	.
.	.	.	.	.	.	32gg\JJJ)	.
8GG/L	.	8r	.	24r	.	(8.bb-\L	.
.	.	.	.	24c#/LL	.	.	.
.	.	.	.	24b-/JJ	.	.	.
8E/J	.	24r	.	24cc#/LL	.	.	.
.	.	24d-/LL	.	24c#/JJ	.	.	.
.	.	.	.	.	.	32aa\LL	.
.	.	24G/JJ	.	24r	.	.	.
.	.	.	.	.	.	32gg\JJJ)	.
=71	=71	=71	=71	=71	=71	=71	=71
(2GGn/	p	(4en\	p	(4cc#\	p	(2bb-\	p
.	.	[4En/)	.	[4c#/)	.	.	.
8AAn/)	.	8E/L]	.	8c#/L]	.	4aan\)	.
8r	.	(8c#/J	.	(8en/J	.	.	.
(8.An\L	.	8.e\L	.	8.gn/L	.	(8.cc#\L	.
16B-\Jk)	.	32dn\LL	.	32f#/LL	.	32ddn\LL	.
.	.	32c#\JJJ)	.	32e/JJJ)	.	32een\JJJ)	.
=72	=72	=72	=72	=72	=72	=72	=72
(2GGn/	p	(4en\	p	(4dd-\	p	(2bb-\	p
.	.	4En/)	.	4d-/)	.	.	.
8AA-/)	.	8E-/L	.	8cn/L	.	4aa-\)	.
8r	.	(8e-\J	.	(8ccn/J	.	.	.
(8.A-\L	.	8.g-\L	.	8.ee-\L	.	(8.ccn\L	.
16B-\Jk)	.	32f\LL	.	32dd-\LL	.	32dd-\LL	.
.	.	32e-\JJJ)	.	32cc\JJJ)	.	32ee-\JJJ)	.
=73	=73	=73	=73	=73	=73	=73	=73
(2GG-/	p	(4cc\	p	(4ee-\	p	(2bb-\	p
.	.	[4c\)	.	[4e-/)	.	.	.
8FF/)	.	8c\L]	.	8e-/L]	.	8aan\)	.
*clefC4	*clefC4	*	*	*	*	*	*
8f\	.	(8cc\J	.	(8ee-\J	.	4aa\	.
8r	.	8.ee-\L	.	8.gg-\L	.	.	.
8f\	.	.	.	.	.	8aa\	.
.	.	32dd-\LL	.	32ff\LL	.	.	.
.	.	32cc\JJJ)	.	32ee-\JJJ)	.	.	.
=74	=74	=74	=74	=74	=74	=74	=74
16r	.	(4f\	.	(8ee-\	.	(4aa-\	.
16f'\LL	.	.	.	.	.	.	.
16B-'\JJ	.	.	.	4ddn\)	.	.	.
16r	.	.	.	.	.	.	.
8r	.	8.a-\L	.	.	.	8.ccc-\L	.
8B-'\	.	.	.	8dd\	.	.	.
.	.	32gn\LL	.	.	.	32bb-\LL	.
.	.	32f\JJJ)	.	.	.	32aa-\JJJ)	.
16r	.	(4b-\	.	(4dd-\	.	(8aa-\	.
16B-'\LL	.	.	.	.	.	.	.
16e-'\JJ	.	.	.	.	.	4ggn\)	.
16r	.	.	.	.	.	.	.
8r	.	8.dd-\L	.	8.ff-\L	.	.	.
8e-'\	.	.	.	.	.	8gg\	.
.	.	32cc\LL	.	32ee-\LL	.	.	.
.	.	32b-\JJJ)	.	32dd-\JJJ)	.	.	.
=75	=75	=75	=75	=75	=75	=75	=75
16r	pp	(4e-\	pp	(8dd-\	pp	(4gg-\	pp
16e-'\LL	.	.	.	.	.	.	.
16A-'\JJ	.	.	.	4cc\)	.	.	.
16r	.	.	.	.	.	.	.
8r	.	8.g-\L	.	.	.	8.bb-\L	.
8A-'\	.	.	.	8cc\	.	.	.
.	.	32f\LL	.	.	.	32aa-\LL	.
.	.	32e-\JJJ)	.	.	.	32gg-\JJJ)	.
16r	.	(4a-\	.	(4cc-\	.	(8gg-\	.
16A-'\LL	.	.	.	.	.	.	.
16d-'\JJ	.	.	.	.	.	4ff\)	.
16r	.	.	.	.	.	.	.
8r	.	8.cc-\L	.	8.ee-\L	.	.	.
8d-'\	.	.	.	.	.	8ff\	.
.	.	32b-\LL	.	32dd-\LL	.	.	.
.	.	32a-\JJJ)	.	32bn\JJJ)	.	.	.
=76	=76	=76	=76	=76	=76	=76	=76
16r	.	(8a-\L	.	(8cc-\L	.	(8ff\	.
16D-/LL	.	.	.	.	.	.	.
16d-/JJ	.	8g-\J	.	8b-\J	.	4gg-\)	.
16r	.	.	.	.	.	.	.
8r	.	8.b-\L	.	8.dd-\L	.	.	.
8d-'\	.	.	.	.	.	8gg-\	.
.	.	32a-\LL	.	32cc-\LL	.	.	.
.	.	32g-\JJJ)	.	32b-\JJJ)	.	.	.
16r	.	(8g-\L	.	(8b-\	.	(8gg-\	.
16D-'/LL	.	.	.	.	.	.	.
16d-'/JJ	.	8f\J)	.	4a-/)	.	4aa-\)	.
16r	.	.	.	.	.	.	.
*clefF4	*clefF4	*	*	*	*	*	*
(8.FF/L	.	(8.A-/L	.	.	.	.	.
.	.	.	.	8a-/	.	8aa-\	.
32EE-/LL	.	32G-/LL	.	.	.	.	.
32DD-/JJJ)	.	32F/JJJ)	.	.	.	.	.
=77	=77	=77	=77	=77	=77	=77	=77
8CC#'/L	mf	8e-'\L	mf	8g-'/L	mf	16aa-'\LL	mf
.	.	.	.	.	.	16eee-'\	.
[8A-\J	.	8cn'\J	.	8e-'/J	.	16aa-'\	.
.	.	.	.	.	.	16ggg-'\JJ	.
16A-\LL]	.	16d-'\LL	.	16f'/LL	.	[4fff\	.
16d-'\	.	16f'\	.	16a-'/	.	.	.
16A-'\	.	16d-'\	.	16f'/	.	.	.
16f'\JJ	.	16a-'\JJ	.	16dd-'/JJ	.	.	.
[4g-\	.	[4a-\	.	[4ee-\	.	16fff\LL]	.
.	.	.	.	.	.	16ccc'\	.
.	.	.	.	.	.	16aa-'\	.
.	.	.	.	.	.	16eee-'\JJ	.
16g-\LL]	.	16a-\LL]	.	16ee-\LL]	.	[4ddd-\	.
16f'\	.	16a-'\	.	16dd-'\	.	.	.
16DD-'/	.	16F'/	.	16dd-'\	.	.	.
16FF'/JJ	.	16A-'/JJ	.	16ccn'\JJ	.	.	.
=78	=78	=78	=78	=78	=78	=78	=78
8GG-'/L	p	8B-'/L	p	8b-'/L	p	16ddd-\LL]	p
.	.	.	.	.	.	16ddd-'\	.
8BB-'/	.	8d-'/	.	8g-'/	.	16ccc'\	.
.	.	.	.	.	.	16bb-'\JJ	.
8C'/	.	8A-'/	.	8e-'/	.	(16bb-\LL	.
.	.	.	.	.	.	16aa-\)	.
8D-'/J	.	8A-'/J	.	8d-'/J	.	16gg-'\	.
.	.	.	.	.	.	16ff'\JJ	.
8G-'\L	.	8B-'/L	.	8e-'/L	.	(16ee-'\LL	.
.	.	.	.	.	.	16cc-'\	.
8F'\	.	8B-'/J	.	8a-'/	.	16b-'\	.
.	.	.	.	.	.	16ddn'\JJ)	.
8E-'\	.	8b-'\L	.	8g-'/	.	(16ee-\LL	.
.	.	.	.	.	.	16ff\)	.
8A-'\J	.	8e-'\J	.	8g-'/J	.	16gg-'\	.
.	.	.	.	.	.	16ccn'\JJ	.
=79	=79	=79	=79	=79	=79	=79	=79
4r	.	16F'/LL	.	16f'/LL	.	[4aa-\	.
.	.	16f'/	.	16a-'/	.	.	.
.	.	16d-'/	.	16f'/	.	.	.
.	.	16f'/JJ	.	16dd-'/JJ	.	.	.
16r	.	8.c\L	.	8.ee-\L	.	16aa-\LL]	.
16C'/LL	.	.	.	.	.	16eee-'\	.
16AA-'/	.	.	.	.	.	16aa-'\	.
16E-'/JJ	.	16A-\Jk	.	16cc'\Jk	.	16ggg-'\JJ	.
4D-/	.	16A-'\LL	.	16dd-'\LL	.	16fff'\LL	.
.	.	16b-'\	.	16ff'\J	.	16ddd-'\J	.
.	.	16a-'\	.	8gg-'^\J	.	8eee-'^\J	.
.	.	16cc'^\JJ	.	.	.	.	.
16r	.	16dd-'\LL	.	16ff'\LL	.	16ddd-'\LL	.
16BB-'/LL	.	16f'\J	.	16dd-'\J	.	16ddd-'\J	.
16AA-'/	.	8g-'^\J	.	8cc'^\J	.	8eee-'^\J	.
16AAn'/JJ	.	.	.	.	.	.	.
=80	=80	=80	=80	=80	=80	=80	=80
8BB-/	pp	8f\	pp	16ddn\	pp	8dddn\	pp
.	.	.	.	16dn'/LK	.	.	.
8r	.	8r	.	8.e-/J	.	8r	.
4r	.	4r	.	.	.	4r	.
.	.	.	.	16d'/LK	.	.	.
.	.	.	.	8.e-/J	.	.	.
2r	.	2r	.	.	.	2r	.
.	.	.	.	16d'/LK	.	.	.
.	.	.	.	8.e-/J	.	.	.
.	.	.	.	16d'/LK	.	.	.
.	.	.	.	8e-/J	.	.	.
=81	=81	=81	=81	=81	=81	=81	=81
2r	.	8dn'\L	pp	8.r	pp	16r	pp
.	.	.	.	.	.	16b-'/LK	.
.	.	8e-'\	.	.	.	8.g-'/J	.
.	.	.	.	16g-'/	.	.	.
.	.	8c'\	.	8e-'/	.	.	.
.	.	.	.	.	.	16a-'/LK	.
.	.	8d-'\J	.	16r	.	8.f/J	.
.	.	.	.	16f'/	.	.	.
4r	.	8B-'\L	.	8d-'/	.	.	.
.	.	.	.	.	.	16g-'/LL	.
.	.	8c'\	.	16r	.	16e-'/	.
.	.	.	.	16e-'/	.	16g-'/JJ	.
8r	.	8d-'\	.	(16f/LL	.	8f^/	.
.	.	.	.	[16c-/JJ)	.	.	.
[8Dn\	.	8dn'\J	.	16c-/LL]	.	8r	.
.	.	.	.	16B-/JJ	.	.	.
=82	=82	=82	=82	=82	=82	=82	=82
16Dn\]	pp	16r	pp	4r	pp	8.r	pp
16D'\LK	.	16B-'/LK	.	.	.	.	.
8.E-\J	.	8.G-/J	.	.	.	.	.
.	.	.	.	.	.	16cc-'\	.
.	.	.	.	16r	.	8.b-\L	.
16D'\LK	.	16B-'/LK	.	16b-'/LK	.	.	.
8.E-\J	.	8.G-/J	.	8g-'/J	.	.	.
.	.	.	.	.	.	16cc-'\Jk	.
.	.	.	.	4r	.	8.b-\L	.
16D'\LK	.	16B-'/LK	.	.	.	.	.
8.E-\J	.	8.G-/J	.	.	.	.	.
.	.	.	.	.	.	16cc-'\Jk	.
.	.	.	.	16r	.	8.b-\L	.
16D'\LK	.	16B-'/LK	.	16b-'/LK	.	.	.
8E-\J	.	8G-/J	.	8g-'/J	.	.	.
.	.	.	.	.	.	16cc-'\Jk	.
=83	=83	=83	=83	=83	=83	=83	=83
8Dn'\L	.	16F\LL	.	16r	.	8b-\	.
.	.	16f\JJ	.	16b-'/LK	.	.	.
8E-'\	.	16r	.	8.g-/J	.	16r	.
.	.	16e-\	.	.	.	16gg-'\	.
8C'\	.	16r	.	.	.	8ee-'\	.
.	.	16e-\	.	16a-'/LK	.	.	.
8D-'\J	.	16r	.	8.f/J	.	16r	.
.	.	16d-\	.	.	.	16ff'\	.
8BB-'/L	.	16r	.	.	.	8dd-'\	.
.	.	16d-\	.	16g-'/LL	.	.	.
8C'/	.	16r	.	16e-'/	.	16r	.
.	.	16A-/	.	16g-'/JJ	.	16ee-'\	.
8D-'/	.	16r	.	16r	.	8ff'\	.
.	.	16A-'/LL	.	16f'/LL	.	.	.
8C-'/J	.	16A-'/	.	16d-'/	.	16r	.
.	.	16d-'/JJ	.	16f'/JJ	.	16ddd-'\	.
=84	=84	=84	=84	=84	=84	=84	=84
16BB-/LL	.	8d-'\L	.	8g-'/L	.	(16eee-\LL	.
16BB-'/J	.	.	.	.	.	16ddd-\)	.
8.GG-/J	.	8d-'\	.	8b-'/	.	(16ccc'\	.
.	.	.	.	.	.	16bb-'\JJ)	.
.	.	8c'\	.	8e-'/	.	(16bb-\LL	.
16AA-'/LK	.	.	.	.	.	16aa-\)	.
8.DDn/J	.	8c-'\J	.	8f'/J	.	(16gg-'\	.
.	.	.	.	.	.	16ff'\JJ)	.
.	.	8B-/L	.	(16a-/LL	.	(16ff\LL	.
16GG-'/LK	.	.	.	16g-/)	.	16ee-\)	.
8FF/J	.	8A-/J	.	16a-'/	.	(16ee-'\	.
.	.	.	.	16a-'/JJ	.	16ddn'\JJ)	.
(16GG-/LL	.	(16G-/LL	.	(16b-/LL	.	(16ee-\LL	.
16FF/	.	16A-/)	.	16a-/)	.	16ff\	.
16EE-/)	.	16A-'/	.	16a-'/	.	16gg-\)	.
16AA-'/JJ	.	16A-'/JJ	.	16g-'/JJ	.	16cc\JJ	.
=85	=85	=85	=85	=85	=85	=85	=85
(8DD-/L	p	(4A-/	p	(8f/	p	(16ee-\LK	p
.	.	.	.	.	.	8dd-\)	.
16D-/L	.	.	.	4d-/)	.	.	.
16F/JJ)	.	.	.	.	.	16dd-\Jk	.
(8GG-/L	.	4B-/	.	.	.	(16ee-\LK	.
.	.	.	.	.	.	8dd-\)	.
16D-/L	.	.	.	[8d-/	.	.	.
16B-/JJ)	.	.	.	.	.	16dd-\Jk	.
(8FF/L	.	4A-/)	.	32d-\LLL]	.	(16ee-\LK	.
.	.	.	.	32a-'\	.	.	.
.	.	.	.	32b-'\	.	8dd-\)	.
.	.	.	.	32cc'\	.	.	.
16D-/L	.	.	.	32dd-'\	.	.	.
.	.	.	.	32ee-'\	.	.	.
16A-/JJ)	.	.	.	32ff'\	.	16dd-\Jk	.
.	.	.	.	32gg-'\JJJ	.	.	.
(8EE-/L	.	4C/ 4A-/	.	32aa-'\LLL	.	(8.gg-\L	.
.	.	.	.	32bb-'\	.	.	.
.	.	.	.	32ccc'\	.	.	.
.	.	.	.	32ddd-'\J	.	.	.
16AA-/L	.	.	.	16eee-'\	.	.	.
16G-/JJ)	.	.	.	16gg-'\JJ	.	32ee-\LL	.
.	.	.	.	.	.	32cc\JJJ)	.
=86	=86	=86	=86	=86	=86	=86	=86
(8DD-/L	p	32D-'/LLL 32A-'/	p	8ff\L	p	(16ee-\LK	p
.	.	32D-'/	.	.	.	.	.
.	.	32E-'/	.	.	.	8dd-\)	.
.	.	32F'/	.	.	.	.	.
.	.	.	.	b-q/LLL	.	.	.
.	.	.	.	a-q/	.	.	.
.	.	.	.	gnq/JJJ	.	.	.
16AA-/L	.	32G-'/	.	16a-'\L	.	.	.
.	.	32A-'/	.	.	.	.	.
16F/JJ)	.	32B-'/	.	16d-'\JJ	.	16dd-\Jk	.
.	.	32c'/JJJ	.	.	.	.	.
(8DD-/L	.	32d-'\LLL	.	8r	.	(16dd-\LK	.
.	.	32e-'\	.	.	.	.	.
.	.	32f'\	.	.	.	8cc-\)	.
.	.	32g-'\J	.	.	.	.	.
.	.	.	.	g-q/LLL	.	.	.
.	.	.	.	fq/	.	.	.
.	.	.	.	e-q/JJJ	.	.	.
16AA-/L	.	16a-'\	.	16f'/LL	.	.	.
16F/JJ)	.	16c-'\JJ	.	16A-'/JJ	.	16cc-\Jk	.
32DD-'/LLL	.	(4G-/	.	8r	.	(16cc-\LK	.
32DD-'/	.	.	.	.	.	.	.
32EE-'/	.	.	.	.	.	8b-\)	.
32FF'/	.	.	.	.	.	.	.
.	.	.	.	ee-q/LLL	.	.	.
.	.	.	.	dd-q/	.	.	.
.	.	.	.	ccq/JJJ	.	.	.
32GG-'/	.	.	.	16dd-\LL	.	.	.
32AA-'/	.	.	.	.	.	.	.
32BB-'/	.	.	.	16g-\JJ	.	16b-\Jk	.
32C'/JJJ	.	.	.	.	.	.	.
32D-'\LLL	.	4F/)	.	8r	.	(16b-\LK	.
32E-'\	.	.	.	.	.	.	.
32F'\	.	.	.	.	.	8a-\)	.
32G-'\J	.	.	.	.	.	.	.
.	.	.	.	ee-q/LLL	.	.	.
.	.	.	.	dd-q/	.	.	.
.	.	.	.	ccq/JJJ	.	.	.
16A-'\	.	.	.	16dd-/LL	.	.	.
16D-'\JJ	.	.	.	16f/JJ	.	16a-\Jk	.
=87	=87	=87	=87	=87	=87	=87	=87
32C-/LLL	pp	32F/LLL	pp	32dd-/LLL	pp	[4a-/	pp
32C-/	.	32F/	.	32d-/	.	.	.
32C-/	.	32F/	.	32d-/	.	.	.
32C-/	.	32F/	.	32d-/	.	.	.
32C-/	.	32F/	.	32d-/	.	.	.
32C-/	.	32F/	.	32d-/	.	.	.
32C-/	.	32F/	.	32d-/	.	.	.
32C-/JJJ	.	32F/JJJ	.	32d-/JJJ	.	.	.
32C-/LLL	.	32F/LLL	.	32d-/LLL	.	32a-\LLL]	.
32C-/	.	32F/	.	32d-/	.	32a-'\	.
32C-/	.	32F/	.	32d-/	.	32b-'\	.
32C-/	.	32F/	.	32d-/	.	32cc-'\	.
32C-/	.	32F/	.	32d-/	.	32dd-'\	.
32C-/	.	32F/	.	32d-/	.	32ee-'\	.
32C-/	.	32F/	.	32d-/	.	32ff'\	.
32C-/JJJ	.	32F/JJJ	.	32d-/JJJ	.	32gg-'\JJJ	.
32C-/LLL	.	32F/LLL	.	32d-/LLL	.	32aa-'\LLL	.
32FF/	.	32A-/	.	32d-/	.	32aa-'\	.
32FF/	.	32A-/	.	32d-/	.	32bb-'\	.
32FF/	.	32A-/	.	32d-/	.	32ccc-'\	.
32FF/	.	32A-/	.	32d-/	.	32ddd-'\	.
32FF/	.	32A-/	.	32d-/	.	32eee-'\	.
32FF/	.	32A-/	.	32d-/	.	32fff'\	.
32FF/JJJ	.	32A-/JJJ	.	32d-/JJJ	.	32ggg-'\JJJ	.
32FF/LLL	.	32A-/LLL	.	32d-/LLL	.	8aaa-'\L	.
32FF/	.	32A-/	.	32d-/	.	.	.
32FF/	.	32A-/	.	32d-/	.	.	.
32FF/JJJ	.	32A-/JJJ	.	32d-/JJJ	.	.	.
32GG-/LLL	.	32G-/LLL	.	32d-/LLL	.	8bbb-'\J	.
32GG-/	.	32G-/	.	32d-/	.	.	.
32GG-/	.	32G-/	.	32d-/	.	.	.
32GG-/JJJ	.	32G-/JJJ	.	32d-/JJJ	.	.	.
=88	=88	=88	=88	=88	=88	=88	=88
32AA-/LLL	p	32E-/LLL	p	32g-/LLL	p	8cccn'\L	p
32AA-/	.	32E-/	.	32g-/	.	.	.
32AA-/	.	32E-/	.	32g-/	.	.	.
32AA-/JJJ	.	32E-/JJJ	.	32g-/JJJ	.	.	.
32BB-/LLL	.	32D-/LLL	.	32f/LLL	.	8ddd-'\J	.
32BB-/	.	32D-/	.	32f/	.	.	.
32BB-/	.	32D-/	.	32f/	.	.	.
32BB-/JJJ	.	32D-/JJJ	.	32f/JJJ	.	.	.
32Cn/LLL	.	32E-/LLL	.	32e-/LLL	.	8aa-'\L	.
32C/	.	32E-/	.	32e-/	.	.	.
32D-/	.	32F/	.	32d-/	.	.	.
32D-/JJJ	.	32F/JJJ	.	32d-/JJJ	.	.	.
32GG-/LLL	.	32E-/LLL	.	32d-/LLL	.	8bb-'\J	.
32GG-/	.	32E-/	.	32d-/	.	.	.
32GGn/	.	32e-/	.	32d-/	.	.	.
32GG/JJJ	.	32e-/JJJ	.	32d-/JJJ	.	.	.
16AA-'/LK	.	16f'/LK	.	16d-'/LK	.	16a-'\LK	.
16r	.	16r	.	16r	.	16r	.
16AA-'/Jk	.	16E-'/Jk	.	16g-'/Jk	.	16cc'\Jk	.
16r;	.	16r;	.	16r;	.	16r;	.
(DD-q/LLL	.	(D-q/LLL	.	(A-q/LLL	.	(A-q/LLL	.
AA-q/	.	A-q/	.	d-q/JJJ	.	fq/JJJ	.
Fq/JJJ	.	fq/JJJ	.	.	.	.	.
8DD-'/)	.	8D-'/)	.	8f'/)	.	8dd-'\)	.
8r	.	8r	.	8r	.	8r	.
==	==	==	==	==	==	==	==
*-	*-	*-	*-	*-	*-	*-	*-
